img/Test1.CUBE
#Created by: Adobe Photoshop Export Color Lookup Plugin
#Copyright: (C) Copyright 2017 Bird Brain Games
TITLE "^5F924A2FB6929CDCE8129184FB5BD2DC46CA41B1A7F514652F^pimgpsh_fullsize_distr.png"
#LUT size
LUT_3D_SIZE 32
#data domain
DOMAIN_MIN 0.0 0.0 0.0
DOMAIN_MAX 1.0 1.0 1.0
#LUT data points
0.093781 0.057831 0.200684
0.094177 0.057770 0.200623
0.096008 0.057648 0.200500
0.099457 0.057373 0.200226
0.105164 0.056854 0.199707
0.113525 0.056030 0.198883
0.125031 0.054657 0.197510
0.140594 0.052216 0.195068
0.160980 0.048645 0.191498
0.186432 0.043579 0.185089
0.194305 0.051453 0.161469
0.202454 0.059601 0.145538
0.305420 0.019714 0.157501
0.320770 0.035065 0.147430
0.338928 0.053223 0.146515
0.453735 0.025177 0.145233
0.473328 0.044769 0.150787
0.588104 0.016693 0.144745
0.605347 0.033936 0.152130
0.621887 0.050476 0.160767
0.735596 0.021332 0.150604
0.752655 0.038391 0.160095
0.770630 0.056366 0.171265
0.886536 0.029419 0.159607
0.904877 0.047760 0.171478
0.922729 0.065613 0.183685
1.000000 0.054565 0.179718
1.000000 0.077423 0.194885
1.000000 0.098145 0.209473
1.000000 0.107086 0.215729
1.000000 0.107086 0.215729
1.000000 0.107086 0.215729
0.093658 0.058197 0.201050
0.094147 0.058136 0.200989
0.095947 0.057983 0.200836
0.099457 0.057739 0.200592
0.105133 0.057220 0.200073
0.113525 0.056366 0.199219
0.125092 0.055023 0.197876
0.140717 0.052612 0.195465
0.161133 0.048920 0.191772
0.186829 0.043976 0.185455
0.194733 0.051880 0.161804
0.202728 0.059875 0.145691
0.305878 0.020172 0.157501
0.321228 0.035522 0.147430
0.339233 0.053528 0.146515
0.454041 0.025482 0.145142
0.473785 0.045227 0.150726
0.588409 0.016998 0.144653
0.605621 0.034210 0.152039
0.622192 0.050781 0.160645
0.735870 0.021606 0.150482
0.752899 0.038635 0.159973
0.770874 0.056610 0.171204
0.886841 0.029724 0.159546
0.905151 0.048035 0.171417
0.922943 0.065826 0.183624
1.000000 0.055084 0.179688
1.000000 0.077759 0.194855
1.000000 0.098572 0.209503
1.000000 0.107391 0.215729
1.000000 0.107391 0.215729
1.000000 0.107391 0.215729
0.093231 0.060211 0.203064
0.093781 0.060150 0.203003
0.095795 0.059998 0.202850
0.099274 0.059662 0.202515
0.105042 0.059143 0.201996
0.113556 0.058197 0.201050
0.125244 0.056610 0.199463
0.141205 0.054230 0.197083
0.162079 0.050537 0.193390
0.188080 0.045227 0.186859
0.196075 0.053223 0.162628
0.204315 0.061462 0.146454
0.307465 0.021759 0.157501
0.322754 0.037048 0.147461
0.340820 0.055115 0.146698
0.455688 0.027130 0.144836
0.475220 0.046661 0.150696
0.589935 0.018524 0.144104
0.606995 0.035583 0.151672
0.623535 0.052124 0.160370
0.737183 0.022919 0.150024
0.754333 0.040070 0.159485
0.772095 0.057831 0.170807
0.888031 0.030914 0.158997
0.906281 0.049164 0.170929
0.924042 0.066925 0.183197
1.000000 0.056671 0.179504
1.000000 0.079315 0.194855
1.000000 0.100067 0.209503
1.000000 0.108856 0.215759
1.000000 0.108856 0.215759
1.000000 0.108856 0.215759
0.092133 0.063812 0.206665
0.092682 0.063721 0.206573
0.094849 0.063538 0.206390
0.099030 0.063141 0.205994
0.104706 0.062500 0.205353
0.113464 0.061554 0.204407
0.125549 0.059998 0.202850
0.141968 0.057495 0.200348
0.163513 0.053497 0.196350
0.190643 0.047791 0.189697
0.198822 0.055969 0.164276
0.207245 0.064392 0.147858
0.310669 0.024963 0.157349
0.325867 0.040161 0.147522
0.343872 0.058167 0.146881
0.458740 0.030182 0.144379
0.478149 0.049591 0.150330
0.592773 0.021362 0.143066
0.609833 0.038422 0.150818
0.626251 0.054840 0.159729
0.739899 0.025635 0.148834
0.756836 0.042572 0.158600
0.774475 0.060211 0.170135
0.890289 0.033173 0.158112
0.908539 0.051422 0.170013
0.926208 0.069092 0.182465
1.000000 0.059784 0.179169
1.000000 0.082275 0.194733
1.000000 0.102905 0.209473
1.000000 0.111694 0.215820
1.000000 0.111694 0.215820
1.000000 0.111694 0.215820
0.089539 0.070099 0.212952
0.090118 0.070007 0.212860
0.092468 0.069824 0.212677
0.096985 0.069336 0.212189
0.104279 0.068542 0.211395
0.113190 0.067017 0.209869
0.125610 0.065430 0.208282
0.142822 0.062653 0.205505
0.165527 0.058197 0.201050
0.194672 0.051819 0.193878
0.203308 0.060455 0.166931
0.211884 0.069031 0.149963
0.315491 0.029785 0.156921
0.330750 0.045044 0.147278
0.348511 0.062805 0.147125
0.463440 0.034882 0.143158
0.482666 0.054108 0.149628
0.597473 0.026062 0.141418
0.614166 0.042755 0.149475
0.630493 0.059082 0.158691
0.744141 0.029877 0.146973
0.760925 0.046661 0.157074
0.778351 0.064087 0.168884
0.894257 0.037140 0.156403
0.912201 0.055084 0.168610
0.929657 0.072540 0.181244
1.000000 0.064667 0.178680
1.000000 0.087189 0.194611
1.000000 0.107513 0.209442
1.000000 0.116211 0.215851
1.000000 0.116211 0.215851
1.000000 0.116211 0.215851
0.083649 0.080200 0.223053
0.084259 0.080139 0.222992
0.086884 0.079742 0.222595
0.091980 0.079010 0.221863
0.100067 0.077789 0.220642
0.111908 0.076080 0.218933
0.125702 0.073151 0.216003
0.143372 0.070526 0.213379
0.168243 0.065277 0.208130
0.200592 0.057739 0.199982
0.209717 0.066864 0.170227
0.218628 0.075775 0.152649
0.322723 0.037018 0.155884
0.337891 0.052185 0.146667
0.355438 0.069733 0.147369
0.470490 0.041931 0.141052
0.489471 0.060913 0.148254
0.604126 0.032715 0.138733
0.620667 0.049255 0.147278
0.636749 0.065338 0.156952
0.750244 0.035980 0.144073
0.766815 0.052551 0.154724
0.784180 0.069916 0.166870
0.899811 0.042694 0.153625
0.917664 0.060547 0.166473
0.934845 0.077728 0.179443
1.000000 0.072113 0.177948
1.000000 0.094208 0.194366
0.980286 0.123138 0.215210
0.986328 0.129181 0.220032
0.986328 0.129181 0.220032
0.986328 0.129181 0.220032
0.074921 0.097351 0.217773
0.075470 0.097198 0.218323
0.077545 0.096619 0.220398
0.081940 0.095276 0.224792
0.089569 0.092773 0.232422
0.103271 0.089813 0.232666
0.122498 0.086334 0.229187
0.144562 0.080658 0.223511
0.170624 0.075531 0.218384
0.208588 0.065735 0.208588
0.218536 0.075684 0.174286
0.227783 0.084930 0.155121
0.332794 0.047089 0.152924
0.347717 0.062012 0.144928
0.364838 0.079132 0.146667
0.480103 0.051544 0.137695
0.498718 0.070160 0.146057
0.613434 0.042023 0.134247
0.629639 0.058228 0.143982
0.645264 0.073853 0.154205
0.758759 0.044495 0.139984
0.775055 0.060791 0.151398
0.791992 0.077728 0.163971
0.907684 0.050568 0.149506
0.925140 0.068024 0.162933
0.942139 0.085022 0.176575
0.958313 0.101166 0.189636
0.973358 0.116211 0.201935
0.986938 0.129791 0.213348
0.992859 0.135712 0.218506
0.992859 0.135712 0.218506
0.992859 0.135712 0.218506
0.063049 0.121002 0.205902
0.063446 0.120941 0.206299
0.065125 0.120728 0.207977
0.068573 0.120117 0.211426
0.074585 0.118774 0.217438
0.084778 0.115753 0.227631
0.102966 0.108704 0.245819
0.137085 0.099396 0.242249
0.176514 0.086823 0.229675
0.217957 0.076935 0.219788
0.230408 0.087555 0.176880
0.239960 0.097107 0.156647
0.346008 0.060303 0.146393
0.360565 0.074860 0.140472
0.377289 0.091583 0.144714
0.492767 0.064209 0.131744
0.510773 0.082214 0.142242
0.625641 0.054230 0.127625
0.641388 0.069977 0.138458
0.656708 0.085297 0.150208
0.770264 0.056000 0.133423
0.786224 0.071960 0.145844
0.802643 0.088379 0.159790
0.819763 0.105499 0.174103
0.836731 0.122467 0.188904
0.853424 0.139160 0.203552
0.967926 0.110779 0.186035
0.982452 0.125305 0.198822
0.995880 0.138733 0.210907
1.000000 0.145264 0.216522
1.000000 0.145264 0.216522
1.000000 0.145264 0.216522
0.046753 0.151794 0.189606
0.046997 0.151825 0.189850
0.048096 0.151947 0.190948
0.050293 0.152222 0.193146
0.054016 0.152435 0.196869
0.060181 0.152252 0.203033
0.070862 0.150482 0.213715
0.137970 0.137970 0.137970
0.143555 0.143555 0.143555
0.147339 0.147339 0.147339
0.153931 0.153931 0.153931
0.160553 0.160553 0.160553
0.266602 0.123749 0.149902
0.279419 0.136566 0.156128
0.393372 0.107666 0.139282
0.410614 0.124908 0.152252
0.427856 0.142151 0.167023
0.542664 0.114105 0.149200
0.557953 0.129395 0.163055
0.572723 0.144165 0.176819
0.686371 0.114960 0.157318
0.701691 0.130280 0.171722
0.717682 0.146271 0.186920
0.833221 0.118958 0.168884
0.849854 0.135590 0.184723
0.866058 0.151794 0.200256
0.980438 0.123291 0.180603
0.994781 0.137634 0.194366
1.000000 0.154175 0.209564
1.000000 0.162445 0.217041
1.000000 0.162445 0.217041
1.000000 0.162445 0.217041
0.040710 0.183563 0.163757
0.040833 0.183685 0.163818
0.041473 0.184326 0.163971
0.042664 0.185516 0.164276
0.044586 0.187439 0.164581
0.047333 0.190186 0.164703
0.051208 0.194061 0.164429
0.152344 0.152344 0.152344
0.157990 0.157990 0.157990
0.165100 0.165100 0.165100
0.169769 0.169769 0.169769
0.177826 0.177826 0.177826
0.284332 0.145538 0.142792
0.297394 0.156769 0.155243
0.313324 0.171021 0.170654
0.430084 0.144379 0.145813
0.446564 0.160858 0.164246
0.561829 0.133270 0.140594
0.576538 0.147980 0.156921
0.590668 0.162109 0.172729
0.704651 0.133240 0.148712
0.719421 0.148010 0.165131
0.735016 0.163605 0.182007
0.850464 0.136200 0.160858
0.866638 0.152374 0.178162
0.882263 0.167999 0.195038
0.996765 0.139618 0.172668
1.000000 0.158203 0.191650
1.000000 0.176453 0.209839
1.000000 0.184387 0.217590
1.000000 0.184387 0.217590
1.000000 0.184387 0.217590
0.062744 0.205597 0.146576
0.062897 0.205750 0.146515
0.063538 0.206390 0.146271
0.064789 0.207642 0.145721
0.066864 0.209717 0.144775
0.069885 0.212738 0.142944
0.074158 0.217010 0.139221
0.080170 0.223022 0.130981
0.175781 0.175781 0.175781
0.182922 0.182922 0.182922
0.191772 0.191772 0.191772
0.197754 0.197754 0.197754
0.278839 0.185272 0.152191
0.300354 0.190399 0.168030
0.320862 0.201294 0.185303
0.430603 0.179077 0.156006
0.451782 0.192291 0.174408
0.564545 0.166595 0.146057
0.582581 0.178741 0.161987
0.599640 0.190918 0.177338
0.713165 0.162598 0.148560
0.730652 0.175446 0.164429
0.748627 0.189148 0.180939
0.865509 0.161469 0.154541
0.883881 0.175659 0.171539
0.901459 0.189728 0.187988
1.000000 0.168213 0.168488
1.000000 0.187378 0.190582
1.000000 0.204987 0.210205
1.000000 0.212646 0.218536
1.000000 0.212646 0.218536
1.000000 0.212646 0.218536
0.087494 0.230347 0.148376
0.087646 0.230499 0.148346
0.088287 0.231140 0.148102
0.089569 0.232422 0.147552
0.091583 0.234436 0.146515
0.094574 0.237427 0.144745
0.098724 0.241577 0.141449
0.104401 0.247253 0.135742
0.197723 0.197723 0.197723
0.204742 0.204742 0.204742
0.213623 0.213623 0.213623
0.224487 0.224487 0.224487
0.268646 0.234222 0.161865
0.303314 0.231720 0.183228
0.329712 0.238007 0.202667
0.429932 0.221924 0.169525
0.455322 0.231598 0.189209
0.561401 0.210358 0.158417
0.582275 0.220001 0.175049
0.601440 0.229950 0.190826
0.709991 0.204926 0.160309
0.729462 0.215820 0.176544
0.749115 0.227692 0.193329
0.862366 0.202148 0.165619
0.882263 0.214813 0.182831
0.901093 0.227509 0.199402
1.000000 0.206085 0.177887
1.000000 0.224426 0.199982
1.000000 0.240997 0.219788
1.000000 0.248383 0.228516
1.000000 0.248383 0.228516
1.000000 0.248383 0.228516
0.027832 0.313538 0.123413
0.027985 0.313690 0.123199
0.028717 0.314423 0.122375
0.030090 0.315796 0.120605
0.032318 0.318024 0.117676
0.035522 0.321228 0.112976
0.040039 0.325745 0.105682
0.046204 0.331909 0.094452
0.140015 0.282867 0.150513
0.155457 0.287689 0.148285
0.183472 0.287811 0.157471
0.218170 0.288208 0.169037
0.261414 0.288361 0.183197
0.304840 0.281738 0.200165
0.340027 0.282745 0.223297
0.428650 0.274353 0.185791
0.459137 0.279846 0.206879
0.557434 0.263489 0.173492
0.581787 0.270111 0.190887
0.603699 0.278107 0.207458
0.705963 0.256775 0.174805
0.727936 0.265472 0.191467
0.749878 0.275421 0.208771
0.858398 0.252594 0.179443
0.880371 0.263184 0.196899
0.900818 0.274353 0.213715
1.000000 0.252991 0.189392
1.000000 0.270386 0.213013
1.000000 0.286133 0.234070
1.000000 0.293091 0.243195
1.000000 0.293091 0.243195
1.000000 0.293091 0.243195
0.064636 0.350342 0.142975
0.064789 0.350494 0.142822
0.065430 0.351135 0.142151
0.066681 0.352386 0.140900
0.068695 0.354401 0.138794
0.071594 0.357300 0.135620
0.075684 0.361389 0.130554
0.081268 0.366974 0.122742
0.174072 0.316925 0.184967
0.184387 0.323608 0.181885
0.206329 0.325958 0.190308
0.233551 0.328857 0.200714
0.267487 0.332642 0.213745
0.309021 0.336914 0.229309
0.350647 0.336243 0.246490
0.425934 0.337402 0.204712
0.463257 0.337677 0.227661
0.552094 0.327332 0.191467
0.580933 0.330719 0.209869
0.605957 0.335846 0.226990
0.701141 0.319214 0.192474
0.726196 0.325104 0.209534
0.750580 0.332825 0.227142
0.853699 0.313232 0.196320
0.878082 0.321930 0.214111
0.900635 0.330994 0.231140
1.000000 0.310425 0.203400
1.000000 0.326385 0.228943
1.000000 0.341217 0.251678
1.000000 0.347504 0.261230
1.000000 0.347504 0.261230
1.000000 0.347504 0.261230
0.018188 0.446747 0.118073
0.018341 0.446899 0.117859
0.018951 0.447510 0.116974
0.020203 0.448761 0.115204
0.022186 0.450745 0.112457
0.025116 0.453674 0.108124
0.029175 0.457733 0.101288
0.034698 0.463257 0.091309
0.127655 0.413361 0.150696
0.136261 0.421967 0.138275
0.163574 0.421906 0.145203
0.198914 0.420868 0.156128
0.243042 0.419586 0.169861
0.297028 0.418152 0.186768
0.359772 0.416138 0.206299
0.420959 0.409271 0.225403
0.466644 0.403687 0.250336
0.545044 0.400452 0.211914
0.579193 0.399506 0.231049
0.608185 0.401489 0.248871
0.695190 0.390015 0.212524
0.723724 0.393280 0.230011
0.751190 0.398407 0.247986
0.848328 0.382446 0.215881
0.875427 0.388550 0.233734
0.900391 0.395660 0.251007
1.000000 0.376343 0.219147
1.000000 0.390686 0.247223
1.000000 0.404114 0.271973
1.000000 0.409973 0.282410
1.000000 0.409973 0.282410
1.000000 0.409973 0.282410
0.060791 0.489349 0.149292
0.060944 0.489502 0.149139
0.061523 0.490082 0.148560
0.062592 0.491150 0.147247
0.064392 0.492950 0.145020
0.067047 0.495605 0.141602
0.070740 0.499298 0.136566
0.162018 0.447723 0.197693
0.168030 0.453735 0.192108
0.175873 0.461578 0.183838
0.195038 0.465637 0.184631
0.224823 0.466583 0.194580
0.262177 0.467773 0.207001
0.307770 0.469269 0.222137
0.360809 0.471039 0.239716
0.416443 0.472717 0.257965
0.468323 0.471313 0.273193
0.535889 0.475830 0.232452
0.576080 0.470520 0.252258
0.609619 0.469208 0.270813
0.688171 0.463165 0.233154
0.720703 0.463196 0.250885
0.751495 0.465729 0.269165
0.842255 0.453827 0.236084
0.872437 0.457458 0.253998
0.899902 0.462402 0.271362
0.994171 0.446442 0.238586
1.000000 0.457062 0.265656
1.000000 0.469025 0.292877
1.000000 0.474304 0.304474
1.000000 0.474304 0.304474
1.000000 0.474304 0.304474
0.014191 0.585602 0.121918
0.014313 0.585724 0.121704
0.014893 0.586304 0.120880
0.015961 0.587372 0.119202
0.017700 0.589111 0.116486
0.020325 0.591736 0.112366
0.023926 0.595337 0.106445
0.115021 0.543579 0.166901
0.121155 0.549713 0.158813
0.129150 0.557709 0.146912
0.145660 0.564087 0.138855
0.180573 0.562653 0.149414
0.223816 0.560944 0.162567
0.277222 0.558716 0.178833
0.339081 0.556274 0.197845
0.403931 0.553406 0.217773
0.467163 0.550690 0.237335
0.523895 0.545929 0.253876
0.571655 0.539093 0.272186
0.609680 0.534271 0.291138
0.680328 0.533691 0.252899
0.716827 0.530823 0.270691
0.751099 0.530426 0.289124
0.835846 0.522644 0.255585
0.869080 0.523621 0.273407
0.899078 0.526581 0.290802
0.988220 0.513733 0.257568
1.000000 0.520782 0.282898
0.969940 0.540009 0.336182
0.978546 0.542175 0.342041
0.978546 0.542175 0.342041
0.978546 0.542175 0.342041
0.051147 0.622559 0.151764
0.051270 0.622681 0.151581
0.051758 0.623169 0.150970
0.052734 0.624146 0.149628
0.054352 0.625763 0.147522
0.056732 0.628143 0.144257
0.146545 0.575104 0.205963
0.150848 0.579407 0.201538
0.156525 0.585083 0.195038
0.164001 0.592560 0.185852
0.174896 0.601624 0.173645
0.205902 0.601410 0.183258
0.244934 0.601135 0.195343
0.293152 0.600952 0.210419
0.348877 0.600616 0.227753
0.407379 0.600311 0.246002
0.464325 0.599823 0.263672
0.517029 0.599457 0.280060
0.564484 0.597290 0.293884
0.608673 0.594025 0.309204
0.672028 0.598175 0.270844
0.712402 0.592377 0.288483
0.750031 0.589569 0.307007
0.829376 0.585052 0.273315
0.865540 0.584015 0.290985
0.897949 0.584930 0.308289
0.926666 0.587280 0.324677
0.951904 0.590637 0.339996
0.973602 0.594269 0.353699
0.982849 0.596283 0.359741
0.982849 0.596283 0.359741
0.982849 0.596283 0.359741
0.000031 0.710602 0.119171
0.000031 0.710815 0.118835
0.000031 0.711609 0.117767
0.000031 0.713165 0.115448
0.000916 0.715179 0.112305
0.089874 0.661285 0.173920
0.093018 0.664429 0.169800
0.097290 0.668701 0.163849
0.103088 0.674500 0.155457
0.110687 0.682098 0.143768
0.120728 0.692139 0.126343
0.152161 0.692383 0.131409
0.196350 0.689758 0.144501
0.250610 0.686432 0.160675
0.313721 0.682648 0.179688
0.379974 0.678741 0.199921
0.444580 0.674744 0.219727
0.504150 0.671143 0.238220
0.559387 0.667572 0.255432
0.611572 0.662903 0.271240
0.663391 0.657684 0.287384
0.707428 0.649078 0.304657
0.748260 0.643921 0.323120
0.822754 0.642578 0.289612
0.819763 0.641876 0.360870
0.850311 0.643982 0.379059
0.927124 0.639374 0.340546
0.953735 0.641449 0.355743
0.976776 0.644043 0.369537
0.986420 0.645630 0.375549
0.986420 0.645630 0.375549
0.986420 0.645630 0.375549
0.029816 0.744080 0.144501
0.029907 0.744171 0.144318
0.030365 0.744629 0.143707
0.031281 0.745544 0.142334
0.119415 0.690826 0.205231
0.121490 0.692902 0.202820
0.124451 0.695862 0.199280
0.128479 0.699890 0.194275
0.133942 0.705353 0.187073
0.141113 0.712524 0.176941
0.150665 0.722076 0.162506
0.175629 0.725708 0.161163
0.216370 0.724091 0.173218
0.266663 0.722290 0.188263
0.325470 0.720154 0.205963
0.386932 0.717865 0.224518
0.446899 0.715698 0.242798
0.502319 0.713684 0.259766
0.553589 0.711578 0.275391
0.603088 0.709686 0.290649
0.651581 0.706512 0.305023
0.701813 0.703217 0.320068
0.745880 0.695892 0.338196
0.786041 0.691772 0.357178
0.822327 0.690216 0.376099
0.854675 0.690735 0.394348
0.927002 0.689209 0.355408
0.955231 0.689911 0.370575
0.979431 0.691833 0.384430
0.989594 0.692780 0.390381
0.989594 0.692780 0.390381
0.989594 0.692780 0.390381
0.147919 0.719330 0.236267
0.148041 0.719452 0.236206
0.148438 0.719849 0.235779
0.149231 0.720642 0.234955
0.150513 0.721924 0.233582
0.152527 0.723938 0.231537
0.155334 0.726746 0.228516
0.159180 0.730591 0.224182
0.164368 0.735779 0.218109
0.171204 0.742615 0.209625
0.180267 0.751678 0.197083
0.199677 0.758179 0.190765
0.237671 0.757507 0.202057
0.284668 0.756775 0.216125
0.339752 0.755951 0.232697
0.397400 0.755157 0.250092
0.453644 0.754242 0.267029
0.505554 0.753601 0.282776
0.553619 0.752747 0.297272
0.599945 0.752014 0.311310
0.648926 0.727570 0.392334
0.687195 0.729309 0.403534
0.727478 0.731171 0.415314
0.785767 0.741455 0.371887
0.824280 0.738129 0.390778
0.858490 0.737305 0.409180
0.926514 0.738586 0.369934
0.956360 0.738129 0.385101
0.981812 0.738983 0.398895
0.992462 0.739563 0.404877
0.992462 0.739563 0.404877
0.992462 0.739563 0.404877
0.093109 0.807373 0.199799
0.093201 0.807465 0.199677
0.093597 0.807861 0.199097
0.094421 0.808685 0.198090
0.095734 0.809998 0.196411
0.097687 0.811951 0.193817
0.100464 0.814728 0.190033
0.104279 0.818542 0.184875
0.109436 0.823700 0.177429
0.116333 0.830597 0.166840
0.125519 0.839783 0.151764
0.141846 0.848877 0.136993
0.183472 0.846405 0.149078
0.235474 0.843414 0.164368
0.296112 0.839752 0.182251
0.359863 0.836090 0.201355
0.422150 0.832611 0.220245
0.479553 0.829193 0.237701
0.558044 0.792725 0.321075
0.601715 0.792999 0.334137
0.645294 0.793060 0.347076
0.690155 0.793243 0.360474
0.736359 0.792450 0.373749
0.784027 0.791565 0.387421
0.825775 0.787292 0.405518
0.861969 0.784851 0.423981
0.925568 0.789001 0.384613
0.957001 0.787476 0.399658
0.983826 0.787079 0.413330
0.995056 0.787231 0.419342
0.995056 0.787231 0.419342
0.995056 0.787231 0.419342
0.126129 0.840393 0.229492
0.126221 0.840485 0.229370
0.126617 0.840881 0.228943
0.127350 0.841614 0.228027
0.128571 0.842834 0.226563
0.130432 0.844696 0.224335
0.133057 0.847321 0.221069
0.136688 0.850952 0.216431
0.141571 0.855835 0.209839
0.148132 0.862396 0.200836
0.156860 0.871124 0.187683
0.168365 0.882629 0.169006
0.206970 0.881226 0.179626
0.255524 0.879211 0.193726
0.375824 0.827423 0.289917
0.427216 0.828827 0.305389
0.477325 0.830170 0.320374
0.523590 0.831451 0.334229
0.566406 0.832642 0.346985
0.607666 0.833679 0.359192
0.648865 0.834839 0.371429
0.691193 0.835754 0.383789
0.735626 0.836761 0.396759
0.780518 0.836914 0.409393
0.825470 0.837128 0.422058
0.865021 0.834503 0.438965
0.923950 0.841705 0.399689
0.957184 0.838593 0.414459
0.985474 0.837372 0.428162
0.997223 0.837036 0.434082
0.997223 0.837036 0.434082
0.997223 0.837036 0.434082
0.073029 0.930176 0.193420
0.073181 0.930328 0.193329
0.073547 0.930695 0.192841
0.074249 0.931396 0.191803
0.075470 0.932617 0.190063
0.077301 0.934448 0.187469
0.079895 0.937042 0.183685
0.083496 0.940643 0.178223
0.088348 0.945496 0.170685
0.094910 0.952057 0.160370
0.103638 0.960785 0.145386
0.115265 0.972412 0.124359
0.231720 0.916168 0.210938
0.277466 0.915131 0.224121
0.331207 0.913910 0.239685
0.388062 0.912842 0.256317
0.443512 0.911652 0.272522
0.494690 0.910553 0.287506
0.542175 0.909485 0.301422
0.587952 0.908630 0.314972
0.633484 0.907532 0.328369
0.680420 0.906616 0.342285
0.729553 0.905334 0.356750
0.780090 0.904083 0.371704
0.829926 0.902039 0.386169
0.878693 0.900116 0.400421
0.921661 0.895538 0.414856
0.956787 0.890991 0.429352
0.986694 0.888336 0.442902
0.999054 0.887756 0.448822
0.999054 0.887756 0.448822
0.999054 0.887756 0.448822
0.106049 0.963196 0.223267
0.106140 0.963287 0.223175
0.106476 0.963623 0.222656
0.107178 0.964325 0.221741
0.108276 0.965424 0.220215
0.110046 0.967194 0.217987
0.112457 0.969604 0.214600
0.115875 0.973022 0.209808
0.120483 0.977631 0.203094
0.126740 0.983887 0.193909
0.135101 0.992249 0.180695
0.230774 0.945068 0.243774
0.257141 0.950256 0.242126
0.300293 0.949982 0.254456
0.351379 0.949768 0.269196
0.405182 0.949554 0.284698
0.457947 0.949341 0.299896
0.506714 0.949249 0.314026
0.551849 0.949097 0.327087
0.595306 0.948914 0.339630
0.638733 0.948730 0.352173
0.683319 0.948517 0.365051
0.730042 0.948212 0.378510
0.778076 0.947998 0.392395
0.825928 0.947449 0.406067
0.872223 0.946442 0.419098
0.916290 0.945496 0.431549
0.955841 0.943298 0.444000
0.987274 0.939453 0.457306
1.000000 0.938049 0.463806
1.000000 0.938049 0.463806
1.000000 0.938049 0.463806
0.137817 0.994965 0.252289
0.137909 0.995056 0.252228
0.138245 0.995392 0.251801
0.138885 0.996033 0.250916
0.139984 0.997131 0.249573
0.141602 0.998749 0.247559
0.145569 1.000000 0.245911
0.153625 1.000000 0.245575
0.164734 1.000000 0.245361
0.179474 1.000000 0.244904
0.199036 1.000000 0.244659
0.260834 0.975128 0.278564
0.282440 0.982910 0.272461
0.323486 0.983368 0.284210
0.371948 0.983887 0.298035
0.423370 0.984406 0.312653
0.473755 0.984985 0.327026
0.520325 0.985718 0.340424
0.563507 0.986176 0.352661
0.605103 0.986725 0.364502
0.646606 0.987366 0.376373
0.689240 0.987793 0.388397
0.733887 0.988190 0.400940
0.779785 0.988770 0.413940
0.825562 0.989075 0.426727
0.870239 0.989532 0.439270
0.912292 0.989288 0.450745
0.951477 0.989044 0.461456
0.987152 0.988739 0.471161
1.000000 0.986328 0.480072
1.000000 0.986328 0.480072
1.000000 0.986328 0.480072
0.175781 1.000000 0.285980
0.175934 1.000000 0.285950
0.176758 1.000000 0.286011
0.178284 1.000000 0.286011
0.180878 1.000000 0.286102
0.184784 1.000000 0.286224
0.190155 1.000000 0.286316
0.197876 1.000000 0.286560
0.208344 1.000000 0.286804
0.222290 1.000000 0.287079
0.240906 1.000000 0.287476
0.277405 0.991699 0.299683
0.297150 1.000000 0.291290
0.337494 1.000000 0.303192
0.385315 1.000000 0.317291
0.436157 1.000000 0.332611
0.485931 1.000000 0.347473
0.531860 1.000000 0.361420
0.574280 1.000000 0.374084
0.615143 1.000000 0.386566
0.655762 1.000000 0.398987
0.697296 1.000000 0.411438
0.740692 1.000000 0.424652
0.784943 1.000000 0.438049
0.829010 1.000000 0.451538
0.871613 1.000000 0.464325
0.912018 1.000000 0.476593
0.948944 1.000000 0.487579
0.982452 1.000000 0.497589
0.996948 1.000000 0.501953
0.996948 1.000000 0.501953
0.996948 1.000000 0.501953
0.182983 1.000000 0.295471
0.183167 1.000000 0.295410
0.183899 1.000000 0.295471
0.185516 1.000000 0.295532
0.187958 1.000000 0.295563
0.191681 1.000000 0.295624
0.196930 1.000000 0.295685
0.204346 1.000000 0.295959
0.214478 1.000000 0.296234
0.228119 1.000000 0.296478
0.246277 1.000000 0.296906
0.279419 0.993713 0.306274
0.301514 1.000000 0.299255
0.341309 1.000000 0.310852
