img/test2.CUBE
#Created by: Adobe Photoshop Export Color Lookup Plugin
#Copyright: (C) Copyright 2017 Bird Brain Games
TITLE "test2.psd"
#LUT size
LUT_3D_SIZE 8
#data domain
#LUT data points
DOMAIN_MIN 0.000000 0.000000 0.000000
DOMAIN_MAX 0.903226 0.903226 0.903226
0.000000 0.000000 0.000000
0.076996 0.007965 0.007965
0.174347 0.013702 0.013702
0.286865 0.019531 0.019531
0.414551 0.025421 0.025421
0.555084 0.031372 0.031372
0.686096 0.037415 0.037415
0.802063 0.043549 0.043549
0.020630 0.083160 0.016449
0.099884 0.093140 0.025787
0.201965 0.099243 0.033356
0.321320 0.104584 0.041840
0.458862 0.108826 0.051666
0.607849 0.111359 0.063965
0.745422 0.111267 0.080017
0.868683 0.108398 0.100586
0.041962 0.183411 0.025787
0.119873 0.197571 0.036896
0.221222 0.206573 0.044891
0.340149 0.214355 0.052673
0.476013 0.221436 0.060822
0.618103 0.227722 0.069733
0.745850 0.233429 0.079559
0.858795 0.238098 0.090576
0.070557 0.295654 0.032837
0.143829 0.316437 0.047272
0.243774 0.329193 0.056641
0.363007 0.339386 0.064758
0.499451 0.348572 0.072815
0.637390 0.357025 0.081146
0.760956 0.364868 0.089966
0.869568 0.372253 0.099365
0.103119 0.421204 0.039185
0.171387 0.449677 0.056885
0.269470 0.467041 0.068115
0.388824 0.480011 0.077057
0.525543 0.491302 0.085449
0.659210 0.501709 0.093811
0.778809 0.511505 0.102386
0.883820 0.520660 0.111298
0.137482 0.558685 0.045624
0.202393 0.590668 0.065979
0.298248 0.609985 0.079163
0.417267 0.623779 0.089325
0.552979 0.635040 0.098236
0.682098 0.645203 0.106934
0.797882 0.654572 0.115601
0.899506 0.663239 0.124481
0.173309 0.686615 0.052216
0.236420 0.717468 0.074554
0.330109 0.737091 0.089844
0.448334 0.750763 0.101288
0.581390 0.761749 0.111115
0.705933 0.771271 0.120270
0.817719 0.780029 0.129242
0.915710 0.788177 0.138245
0.211151 0.800079 0.058899
0.273254 0.828705 0.082886
0.364929 0.847778 0.100128
0.482208 0.861084 0.113068
0.610718 0.871490 0.123871
0.730316 0.880371 0.133667
0.837921 0.888367 0.143066
0.932312 0.895691 0.152374
0.008972 0.002014 0.057556
0.084320 0.011230 0.067932
0.181610 0.017487 0.074615
0.294586 0.023621 0.080933
0.423065 0.029785 0.086731
0.563782 0.035980 0.092346
0.693970 0.042328 0.097504
0.809235 0.048798 0.102173
0.030670 0.085419 0.075348
0.108673 0.096710 0.087097
0.209717 0.103912 0.095703
0.329620 0.109558 0.104919
0.468475 0.113922 0.115295
0.617065 0.116608 0.127930
0.753784 0.116669 0.144165
0.876221 0.113953 0.164734
0.052551 0.186737 0.082520
0.128571 0.202728 0.096039
0.229797 0.212463 0.105377
0.349121 0.220764 0.113495
0.486115 0.228058 0.121735
0.627441 0.234680 0.130371
0.754395 0.240662 0.139099
0.866302 0.245850 0.148987
0.081543 0.301208 0.084137
0.153442 0.323608 0.101074
0.253448 0.337158 0.111450
0.373444 0.347809 0.119904
0.510864 0.357422 0.127594
0.647675 0.366241 0.135254
0.770172 0.374603 0.142670
0.877838 0.382507 0.150177
0.114594 0.430634 0.079956
0.182617 0.460205 0.099731
0.281219 0.478271 0.111542
0.401581 0.491821 0.120575
0.538971 0.503601 0.128632
0.671295 0.514526 0.135254
0.789795 0.524750 0.141724
0.893707 0.534332 0.147858
0.151062 0.572235 0.069092
0.216675 0.604248 0.090546
0.313232 0.623962 0.104004
0.433899 0.637756 0.113922
0.569580 0.649384 0.121765
0.697052 0.659790 0.128876
0.811340 0.669434 0.135101
0.911285 0.678650 0.140930
0.188934 0.701385 0.062683
0.253204 0.731873 0.085571
0.347870 0.751465 0.101440
0.467529 0.765076 0.113220
0.599548 0.775970 0.123322
0.721863 0.785431 0.132690
0.831757 0.794037 0.141937
0.927582 0.802063 0.151093
0.227325 0.813171 0.069611
0.290375 0.841431 0.094208
0.383118 0.860321 0.111969
0.501831 0.873444 0.125244
0.628448 0.883789 0.136353
0.745911 0.892487 0.146393
0.851501 0.900360 0.156006
0.943817 0.907623 0.165527
0.023407 0.000214 0.131927
0.094696 0.011658 0.146759
0.189667 0.019196 0.156250
0.302032 0.025818 0.164368
0.430328 0.032196 0.172089
0.570404 0.038483 0.179291
0.699432 0.044861 0.186371
0.813599 0.051270 0.193237
0.046295 0.082672 0.153839
0.120087 0.096649 0.170624
0.219299 0.105042 0.182495
0.338684 0.111176 0.194061
0.477325 0.115845 0.206696
0.624817 0.118591 0.222290
0.760223 0.118591 0.242249
0.881317 0.115784 0.267181
0.067688 0.183960 0.163818
0.139099 0.202942 0.182648
0.238342 0.214142 0.194702
0.357178 0.222900 0.205200
0.493866 0.230621 0.215515
0.633789 0.237305 0.226379
0.759430 0.243347 0.238037
0.870422 0.248352 0.250854
0.093964 0.299194 0.171204
0.162750 0.323914 0.192688
0.261261 0.338684 0.206055
0.380585 0.349976 0.216858
0.517487 0.359802 0.226990
0.652985 0.368713 0.236877
0.774384 0.377014 0.247101
0.881012 0.384827 0.257721
0.124176 0.428619 0.175873
0.190765 0.459503 0.199982
0.287781 0.478729 0.215149
0.407288 0.492889 0.226807
0.543976 0.504913 0.237091
0.674988 0.515808 0.246948
0.792542 0.525818 0.256775
0.895599 0.535126 0.266632
0.157776 0.568939 0.177734
0.222260 0.601959 0.204010
0.317657 0.622375 0.221130
0.437073 0.636810 0.233887
0.571869 0.648499 0.244873
0.698608 0.658875 0.254791
0.812134 0.668396 0.264618
0.911652 0.677338 0.273956
0.194305 0.698151 0.176300
0.257690 0.729309 0.204285
0.351379 0.749512 0.223358
0.470245 0.763641 0.237396
0.601471 0.774872 0.249146
0.723389 0.784637 0.259369
0.832825 0.793549 0.269073
0.928589 0.801849 0.278381
0.233917 0.812469 0.170807
0.296448 0.841095 0.199921
0.388489 0.860535 0.220856
0.506836 0.873962 0.236206
0.632446 0.884521 0.248474
0.749176 0.893524 0.259308
0.854309 0.901550 0.269073
0.946198 0.909058 0.278229
0.043274 0.000031 0.185822
0.108856 0.010834 0.234344
0.200714 0.019989 0.247498
0.311554 0.027466 0.257965
0.439514 0.034210 0.267242
0.578369 0.040771 0.276123
0.705963 0.047302 0.284668
0.818939 0.053833 0.293060
0.069550 0.076752 0.239319
0.136444 0.094513 0.263275
0.232574 0.104858 0.279114
0.350586 0.112030 0.293335
0.489563 0.116913 0.308868
0.635406 0.119690 0.327362
0.769440 0.119537 0.350891
0.888702 0.116852 0.379425
0.088379 0.178864 0.251770
0.154449 0.201324 0.276703
0.250061 0.214874 0.292633
0.367950 0.224548 0.305695
0.504364 0.232666 0.318146
0.642303 0.239716 0.331085
0.766357 0.245911 0.344757
0.876038 0.250946 0.359863
0.112122 0.295105 0.262756
0.177277 0.322571 0.289520
0.272827 0.339569 0.306732
0.390900 0.351868 0.320007
0.527222 0.362274 0.332062
0.660706 0.371552 0.343994
0.780548 0.380066 0.356079
0.886047 0.387970 0.368713
0.140137 0.425446 0.271576
0.204437 0.458405 0.300385
0.299133 0.479523 0.319275
0.417236 0.494873 0.333374
0.552826 0.507477 0.345886
0.682159 0.518616 0.357605
0.798218 0.528870 0.369415
0.900085 0.538330 0.380981
0.171692 0.566681 0.278229
0.234772 0.601044 0.309052
0.328339 0.622955 0.329895
0.446747 0.638123 0.345245
0.579926 0.650421 0.358246
0.704834 0.661072 0.370300
0.817139 0.670746 0.381927
0.915588 0.679749 0.393463
0.206543 0.696289 0.282654
0.268921 0.728394 0.315186
0.361115 0.749573 0.338104
0.478943 0.764343 0.354919
0.608337 0.776062 0.368835
0.728699 0.785980 0.381348
0.837036 0.794983 0.393188
0.931854 0.803284 0.404694
0.243835 0.810760 0.284943
0.306122 0.839844 0.318695
0.396942 0.859863 0.343628
0.514221 0.873840 0.362061
0.637878 0.884766 0.376984
0.753357 0.893890 0.390198
0.857483 0.902039 0.402222
0.948578 0.909515 0.414124
0.062897 0.000031 0.246521
0.127014 0.008789 0.330078
0.214478 0.019989 0.348022
0.323730 0.028381 0.361206
0.450623 0.035797 0.372681
0.587952 0.042725 0.383118
0.713623 0.049561 0.393311
0.825104 0.056244 0.403076
0.094879 0.070282 0.335083
0.157257 0.090729 0.365692
0.249817 0.103210 0.386475
0.366821 0.111298 0.404388
0.505371 0.116821 0.422882
0.648895 0.119568 0.444885
0.781281 0.119171 0.472595
0.894348 0.119446 0.498749
0.111786 0.172882 0.348389
0.174072 0.197906 0.379547
0.266327 0.213776 0.400085
0.382172 0.224945 0.416229
0.517365 0.233917 0.431061
0.652496 0.241486 0.446045
0.774780 0.247864 0.461975
0.882935 0.253082 0.479309
0.133759 0.289642 0.361938
0.195831 0.319580 0.394287
0.288330 0.338837 0.415894
0.404541 0.352692 0.432220
0.539337 0.363953 0.446747
0.670197 0.373840 0.460541
0.788116 0.382782 0.474548
0.892212 0.390778 0.489075
0.159943 0.420715 0.373962
0.222015 0.455750 0.407837
0.313934 0.479156 0.430939
0.430481 0.495941 0.448151
0.564087 0.509491 0.462891
0.691010 0.521179 0.476715
0.805237 0.531769 0.490204
0.905762 0.541351 0.503754
0.190094 0.562958 0.383942
0.251404 0.599030 0.419647
0.342926 0.622620 0.444519
0.459564 0.639130 0.462921
0.590454 0.652130 0.478394
0.713196 0.663239 0.492371
0.823730 0.673157 0.505737
0.920868 0.682373 0.518921
0.222900 0.694000 0.392303
0.284515 0.726959 0.429382
0.375153 0.749359 0.456238
0.491516 0.765167 0.476074
0.618225 0.777374 0.492371
0.736511 0.787720 0.506989
0.843079 0.796967 0.520447
0.936676 0.805420 0.533295
0.259125 0.809021 0.398651
0.320618 0.838837 0.437134
0.410431 0.859619 0.465881
0.525940 0.874329 0.487366
0.646912 0.885681 0.504822
0.760406 0.895142 0.519867
0.863007 0.903503 0.533539
0.952911 0.911072 0.546265
0.083191 0.000031 0.312195
0.147919 0.005981 0.434204
0.231567 0.019073 0.457245
0.338287 0.028717 0.473999
0.463898 0.036865 0.487854
0.598938 0.044312 0.500336
0.722351 0.051422 0.511993
0.832001 0.058380 0.523010
0.123322 0.062866 0.441559
0.182800 0.085175 0.478516
0.271759 0.099792 0.504913
0.387482 0.108917 0.526764
0.525574 0.114960 0.548004
0.666107 0.117737 0.572144
0.795532 0.117493 0.599945
0.900604 0.121857 0.617188
0.137512 0.166229 0.454285
0.197327 0.193146 0.491180
0.285797 0.211487 0.516876
0.399414 0.224213 0.535980
0.532990 0.234131 0.552582
0.665070 0.242249 0.568665
0.784851 0.248962 0.584839
0.891052 0.254364 0.601959
0.158447 0.283081 0.469604
0.218109 0.314972 0.507477
0.307312 0.336761 0.533295
0.421295 0.352295 0.552063
0.553833 0.364685 0.567871
0.681427 0.375366 0.582245
0.797119 0.384674 0.596252
0.899323 0.393097 0.610413
0.183289 0.414612 0.484100
0.243408 0.451416 0.522858
0.332306 0.477325 0.549286
0.446899 0.495819 0.568329
0.577545 0.510651 0.583984
0.701416 0.523132 0.597809
0.813629 0.534088 0.611084
0.912384 0.544037 0.623993
0.211670 0.558014 0.497223
0.271912 0.595551 0.536652
0.361023 0.621155 0.564026
0.475677 0.639160 0.583618
0.603333 0.653168 0.599396
0.723206 0.664917 0.613251
0.831573 0.675323 0.626099
0.927002 0.684784 0.638489
0.243317 0.690430 0.508453
0.303772 0.724579 0.548615
0.392426 0.748413 0.576965
0.507263 0.765289 0.597473
0.630341 0.778290 0.613678
0.745819 0.789215 0.627747
0.850494 0.798767 0.640533
0.942474 0.807434 0.652588
0.278198 0.806519 0.517975
0.339020 0.837128 0.558716
0.427246 0.858887 0.588257
0.540527 0.874481 0.609680
0.658295 0.886414 0.626526
0.769196 0.896362 0.640900
0.869873 0.904968 0.653870
0.958344 0.912750 0.665771
0.104004 0.000031 0.383270
0.171143 0.002686 0.545197
0.251343 0.017456 0.571381
0.355499 0.028381 0.589691
0.479584 0.037384 0.604248
0.611450 0.045441 0.616699
0.732178 0.052979 0.628021
0.839783 0.060242 0.638550
0.154541 0.054779 0.557526
0.212494 0.078156 0.595825
0.298798 0.094513 0.623383
0.413177 0.104767 0.645935
0.550385 0.111176 0.667603
0.687073 0.114105 0.691223
0.810181 0.115753 0.714203
0.907562 0.123962 0.723938
0.165588 0.159027 0.566528
0.223602 0.187378 0.604034
0.308960 0.207794 0.630188
0.420258 0.222198 0.649689
0.551514 0.233093 0.666290
0.679688 0.241882 0.681824
0.796631 0.249084 0.697357
0.900391 0.254913 0.713226
0.185425 0.275879 0.581329
0.243561 0.309235 0.618500
0.329529 0.333374 0.644562
0.441071 0.350769 0.663544
0.570496 0.364380 0.679199
0.694519 0.375854 0.693176
0.807526 0.385803 0.706573
0.907440 0.394714 0.719696
0.209076 0.407562 0.595825
0.267822 0.445892 0.633057
0.353973 0.474121 0.659302
0.466095 0.494659 0.678375
0.593201 0.510712 0.693726
0.713654 0.524048 0.707184
0.823181 0.535675 0.719757
0.919891 0.546082 0.731873
0.236176 0.551971 0.609192
0.295532 0.590973 0.646454
0.382233 0.618591 0.673218
0.494720 0.638275 0.692627
0.618256 0.653381 0.708099
0.734680 0.665924 0.721375
0.840546 0.676849 0.733521
0.934021 0.686707 0.745148
0.266815 0.685852 0.621002
0.326538 0.721100 0.658539
0.413269 0.746429 0.685913
0.525696 0.764618 0.705872
0.644348 0.778595 0.721588
0.756714 0.790192 0.734955
0.858978 0.800201 0.747040
0.949097 0.809174 0.758301
0.300415 0.803253 0.631378
0.360931 0.834534 0.669220
0.447540 0.857452 0.697235
0.557678 0.874054 0.717865
0.671539 0.886749 0.734009
0.779541 0.897156 0.747650
0.877899 0.906189 0.759766
0.964569 0.914185 0.770966
0.125488 0.000031 0.459564
0.195221 0.000031 0.644958
0.273712 0.015228 0.675934
0.375244 0.027466 0.694763
0.497528 0.037415 0.709351
0.625488 0.046112 0.721619
0.743073 0.054169 0.732574
0.848358 0.061798 0.742615
0.189880 0.045349 0.668823
0.246857 0.069550 0.704895
0.331848 0.087006 0.732483
0.445892 0.097992 0.755859
0.579956 0.105255 0.776855
0.710907 0.108948 0.798462
0.820099 0.117065 0.809967
0.915192 0.125702 0.819183
0.196045 0.151215 0.671356
0.252533 0.180756 0.706940
0.335602 0.202850 0.732819
0.444611 0.218903 0.752350
0.572449 0.231018 0.768677
0.696228 0.240601 0.783600
0.809875 0.248291 0.798248
0.911133 0.254333 0.813202
0.213928 0.268433 0.684021
0.271271 0.302826 0.719269
0.354919 0.328796 0.744965
0.463867 0.348145 0.763794
0.589264 0.363129 0.779083
0.709259 0.375488 0.792542
0.819122 0.386169 0.805176
0.916595 0.395508 0.817444
0.236877 0.400024 0.697540
0.295013 0.439392 0.732574
0.378967 0.469574 0.758118
0.488678 0.492035 0.776917
0.610992 0.509766 0.791901
0.727417 0.524139 0.804749
0.833984 0.536469 0.816650
0.928253 0.547485 0.827850
0.263062 0.545135 0.710419
0.321960 0.585358 0.745239
0.406372 0.615021 0.770966
0.516571 0.636353 0.789856
0.635040 0.652802 0.804779
0.747681 0.666290 0.817505
0.850708 0.677795 0.828918
0.941925 0.688080 0.839691
0.292725 0.680511 0.722137
0.352325 0.716644 0.756866
0.437134 0.743530 0.782867
0.546234 0.763214 0.802124
0.660278 0.778259 0.817169
0.769135 0.790558 0.829895
0.868561 0.801117 0.841187
0.956482 0.810516 0.851624
0.325317 0.799255 0.732666
0.385773 0.831238 0.767395
0.470673 0.855316 0.793793
0.577148 0.872955 0.813385
0.686584 0.886536 0.828766
0.791168 0.897583 0.841583
0.887024 0.907013 0.852875
0.971497 0.915344 0.863159
