img/Test1.CUBE
#Created by: Adobe Photoshop Export Color Lookup Plugin
#Copyright: (C) Copyright 2017 Bird Brain Games
TITLE "^5F924A2FB6929CDCE8129184FB5BD2DC46CA41B1A7F514652F^pimgpsh_fullsize_distr.png"
#LUT size
LUT_3D_SIZE 8
#data domain
#LUT data points
DOMAIN_MIN 0.000000 0.000000 0.000000
DOMAIN_MAX 0.903226 0.903226 0.903226
0.093781 0.057831 0.200684
0.105164 0.056854 0.199707
0.160980 0.048645 0.191498
0.305420 0.019714 0.157501
0.473328 0.044769 0.150787
0.735596 0.021332 0.150604
0.904877 0.047760 0.171478
1.000000 0.098145 0.209473
0.089539 0.070099 0.212952
0.104279 0.068542 0.211395
0.165527 0.058197 0.201050
0.315491 0.029785 0.156921
0.482666 0.054108 0.149628
0.744141 0.029877 0.146973
0.912201 0.055084 0.168610
1.000000 0.107513 0.209442
0.046753 0.151794 0.189606
0.054016 0.152435 0.196869
0.143555 0.143555 0.143555
0.266602 0.123749 0.149902
0.427856 0.142151 0.167023
0.686371 0.114960 0.157318
0.849854 0.135590 0.184723
1.000000 0.154175 0.209564
0.027832 0.313538 0.123413
0.032318 0.318024 0.117676
0.140015 0.282867 0.150513
0.261414 0.288361 0.183197
0.459137 0.279846 0.206879
0.705963 0.256775 0.174805
0.880371 0.263184 0.196899
1.000000 0.286133 0.234070
0.014191 0.585602 0.121918
0.017700 0.589111 0.116486
0.121155 0.549713 0.158813
0.223816 0.560944 0.162567
0.467163 0.550690 0.237335
0.680328 0.533691 0.252899
0.869080 0.523621 0.273407
0.969940 0.540009 0.336182
0.147919 0.719330 0.236267
0.150513 0.721924 0.233582
0.164368 0.735779 0.218109
0.237671 0.757507 0.202057
0.453644 0.754242 0.267029
0.648926 0.727570 0.392334
0.824280 0.738129 0.390778
0.981812 0.738983 0.398895
0.106049 0.963196 0.223267
0.108276 0.965424 0.220215
0.120483 0.977631 0.203094
0.257141 0.950256 0.242126
0.457947 0.949341 0.299896
0.638733 0.948730 0.352173
0.825928 0.947449 0.406067
0.987274 0.939453 0.457306
0.189545 1.000000 0.304138
0.194336 1.000000 0.304230
0.220154 1.000000 0.304626
0.305542 1.000000 0.307037
0.490906 1.000000 0.360291
0.658997 1.000000 0.409668
0.831329 1.000000 0.460785
0.984985 1.000000 0.505890
0.091095 0.059235 0.202087
0.103088 0.058777 0.201630
0.153351 0.053223 0.196075
0.304596 0.018890 0.177673
0.473236 0.044678 0.165619
0.735229 0.020966 0.165680
0.904633 0.047516 0.184082
1.000000 0.098022 0.219116
0.089203 0.072632 0.215485
0.101563 0.070557 0.213409
0.157013 0.063690 0.206543
0.313507 0.027802 0.175385
0.479645 0.051086 0.160278
0.740692 0.026428 0.157715
0.909088 0.051971 0.177155
1.000000 0.103424 0.214905
0.059723 0.145813 0.202576
0.064667 0.146667 0.207520
0.144989 0.144989 0.144989
0.265747 0.122894 0.164032
0.524292 0.095734 0.147827
0.683960 0.112549 0.166626
0.847595 0.133331 0.192169
1.000000 0.151123 0.214935
0.027161 0.312866 0.145172
0.030487 0.316193 0.134003
0.139557 0.282410 0.161377
0.261536 0.290558 0.184601
0.463348 0.277710 0.208954
0.711090 0.253082 0.176788
0.884552 0.259705 0.198517
1.000000 0.284302 0.237061
0.013794 0.585205 0.137146
0.016174 0.587585 0.127838
0.120361 0.548920 0.167908
0.219055 0.563904 0.162872
0.467133 0.552124 0.238098
0.682404 0.533020 0.253693
0.871490 0.522430 0.274292
0.971893 0.538544 0.336945
0.147980 0.719391 0.244904
0.149597 0.721008 0.239838
0.163544 0.734955 0.224792
0.233276 0.759796 0.202240
0.451935 0.755920 0.267456
0.649139 0.728424 0.392883
0.825195 0.738190 0.391296
0.983002 0.738251 0.399323
0.105957 0.963104 0.231171
0.107300 0.964447 0.226074
0.119629 0.976776 0.209198
0.253357 0.951965 0.242218
0.455780 0.950714 0.300140
0.637726 0.949829 0.352478
0.825989 0.948120 0.406433
0.987762 0.939575 0.457581
0.189545 1.000000 0.310303
0.192200 1.000000 0.307526
0.218292 1.000000 0.307953
0.304321 1.000000 0.310333
0.490143 1.000000 0.362152
0.658722 1.000000 0.411530
0.831177 1.000000 0.462341
0.984985 1.000000 0.507385
0.081573 0.059326 0.202179
0.090851 0.060364 0.203217
0.133575 0.065460 0.208313
0.300751 0.015045 0.265656
0.472809 0.044250 0.232086
0.733582 0.019318 0.237122
0.903564 0.046448 0.244324
1.000000 0.097565 0.267700
0.083710 0.072235 0.215088
0.091675 0.070892 0.213745
0.137604 0.075073 0.217926
0.308594 0.022888 0.269623
0.478973 0.050415 0.229889
0.738831 0.024567 0.231781
0.907898 0.050781 0.239288
1.000000 0.102905 0.264557
0.089905 0.138031 0.232758
0.096130 0.138458 0.238983
0.148895 0.148895 0.148895
0.350220 0.064514 0.286011
0.512329 0.083771 0.210907
0.767578 0.053314 0.197449
0.834290 0.120026 0.231140
0.992676 0.135529 0.247192
0.024261 0.309967 0.239136
0.027100 0.312805 0.234955
0.043488 0.329193 0.196991
0.255432 0.303986 0.191223
0.490173 0.262970 0.222168
0.742035 0.230560 0.189545
0.909729 0.238403 0.208618
0.972992 0.284973 0.266113
0.011749 0.583160 0.209869
0.014008 0.585419 0.203430
0.115021 0.543579 0.215424
0.188324 0.581970 0.164642
0.466278 0.560394 0.242279
0.654541 0.530640 0.315674
0.826080 0.528931 0.332428
0.983612 0.530365 0.341888
0.148254 0.719666 0.289185
0.149872 0.721283 0.285156
0.158722 0.730133 0.259674
0.290466 0.715057 0.287567
0.482086 0.725037 0.346161
0.650055 0.733551 0.396210
0.830505 0.737854 0.394012
0.990051 0.735229 0.402344
0.105469 0.962616 0.273560
0.106781 0.963928 0.269043
0.114319 0.971466 0.242218
0.240967 0.955261 0.257935
0.443207 0.958618 0.301483
0.631683 0.955566 0.353943
0.825989 0.952026 0.408325
0.990601 0.939941 0.459015
0.189545 1.000000 0.342896
0.192200 1.000000 0.340485
0.206879 1.000000 0.326385
0.296509 1.000000 0.328674
0.486206 1.000000 0.373383
0.656616 1.000000 0.421753
0.830322 1.000000 0.471466
0.985016 1.000000 0.515442
0.060577 0.015808 0.444366
0.074280 0.015503 0.444061
0.134613 0.013977 0.442535
0.281097 0.011902 0.440460
0.471527 0.042969 0.388275
0.729218 0.014954 0.413513
0.900696 0.043579 0.402771
1.000000 0.096313 0.402191
0.057678 0.032349 0.460907
0.067657 0.025879 0.454437
0.131897 0.023529 0.452087
0.284271 0.019867 0.448425
0.477142 0.048584 0.390656
0.734161 0.019897 0.412445
0.904877 0.047760 0.400604
1.000000 0.101685 0.400360
0.044403 0.113312 0.472961
0.052185 0.108734 0.480743
0.103058 0.077026 0.505585
0.296814 0.061707 0.490265
0.507202 0.078644 0.401581
0.760803 0.046539 0.403473
0.833405 0.119141 0.383270
0.991943 0.134796 0.389709
0.020721 0.302307 0.449280
0.024902 0.303589 0.453461
0.048645 0.308990 0.477203
0.254242 0.279999 0.397095
0.425018 0.282166 0.355804
0.758148 0.186737 0.342468
0.911133 0.196869 0.332031
1.000000 0.232849 0.348022
0.006622 0.578033 0.393555
0.008575 0.579987 0.391479
0.113922 0.542480 0.382568
0.152039 0.580597 0.318665
0.464417 0.563721 0.329224
0.701355 0.515533 0.339935
0.878021 0.499756 0.357544
1.000000 0.507507 0.387177
0.148987 0.720398 0.411163
0.150543 0.721954 0.409210
0.158966 0.730377 0.396973
0.190491 0.761902 0.330750
0.443420 0.756287 0.357330
0.650177 0.752960 0.408142
0.820129 0.731567 0.470276
0.969666 0.729584 0.474091
0.104034 0.961182 0.399902
0.105255 0.962402 0.397125
0.112335 0.969482 0.380493
0.140289 0.997437 0.301636
0.454498 0.939240 0.388641
0.640503 0.940918 0.434479
0.828491 0.942444 0.480469
0.979401 0.930481 0.525635
0.189575 1.000000 0.446228
0.192108 1.000000 0.444641
0.206940 1.000000 0.435699
0.276917 0.991211 0.406403
0.483490 0.990051 0.432953
0.654083 0.994263 0.473602
0.827972 0.997833 0.514038
0.985046 0.999847 0.549438
0.060944 0.023407 0.594818
0.072296 0.023865 0.595276
0.121796 0.025940 0.597351
0.241882 0.032806 0.604218
0.514130 0.002289 0.716553
0.722137 0.007874 0.706329
0.895630 0.038513 0.674957
1.000000 0.093933 0.642517
0.060577 0.038422 0.609833
0.067383 0.032257 0.603668
0.119293 0.034088 0.605499
0.242310 0.040100 0.611511
0.517242 0.008270 0.722534
0.726471 0.012207 0.709930
0.899536 0.042419 0.676331
1.000000 0.099304 0.641571
0.060272 0.108124 0.631683
0.065918 0.103516 0.637329
0.098785 0.075714 0.647125
0.253845 0.049530 0.763794
0.532166 0.038666 0.752930
0.749634 0.035370 0.728180
0.831635 0.117371 0.632843
0.990631 0.133484 0.633606
0.066071 0.270508 0.637482
0.070251 0.269287 0.641663
0.053040 0.262360 0.767303
0.188446 0.203522 0.759857
0.520081 0.179016 0.750427
0.740234 0.168823 0.704926
0.901917 0.187653 0.649536
1.000000 0.228271 0.618683
0.000031 0.568665 0.700897
0.000031 0.570801 0.705078
0.090881 0.548645 0.662292
0.135956 0.571106 0.707367
0.425537 0.537567 0.711243
0.656708 0.513855 0.625793
0.797577 0.511871 0.602478
1.000000 0.473999 0.585266
0.150330 0.721741 0.629211
0.151764 0.723175 0.629456
0.159363 0.730774 0.630890
0.186951 0.758362 0.630219
0.449066 0.734772 0.594452
0.661163 0.745483 0.611481
0.852936 0.721222 0.592590
1.000000 0.705688 0.597595
0.101227 0.958374 0.640656
0.102386 0.959534 0.639648
0.108734 0.965881 0.634399
0.133453 0.990601 0.608398
0.385620 0.957062 0.562042
0.595367 0.965790 0.547455
0.825165 0.957001 0.581635
0.989655 0.925690 0.621948
0.189606 1.000000 0.654297
0.192200 1.000000 0.653595
0.206879 1.000000 0.649384
0.277710 0.992004 0.635559
0.425934 0.997375 0.583832
0.623566 1.000000 0.591675
0.817413 1.000000 0.626495
0.985596 1.000000 0.656738
0.052979 0.009491 0.866608
0.065277 0.009430 0.866547
0.119049 0.009491 0.866608
0.248962 0.011566 0.868683
0.481171 0.019531 0.876648
0.683563 0.028076 0.885193
0.891663 0.034546 0.891479
1.000000 0.091858 0.836975
0.050873 0.025085 0.882202
0.058929 0.018250 0.875366
0.115082 0.018005 0.875122
0.247742 0.019196 0.876312
0.482635 0.025543 0.882660
0.686493 0.032806 0.889923
0.895233 0.038116 0.894836
1.000000 0.097198 0.836426
0.044922 0.097656 0.902039
0.051178 0.092194 0.908295
0.087372 0.060455 0.917572
0.237976 0.057343 0.914459
0.488373 0.056366 0.913483
0.701294 0.057648 0.914764
0.830078 0.115814 0.828003
0.989502 0.132355 0.826782
0.039398 0.266083 0.896515
0.044159 0.263916 0.901276
0.070038 0.250336 0.927155
0.184357 0.193848 0.898621
0.465302 0.186584 0.900848
0.687714 0.183594 0.897858
0.893951 0.179688 0.884552
1.000000 0.223724 0.824615
0.032867 0.544403 0.889984
0.035675 0.544525 0.892792
0.115448 0.526428 0.829712
0.167480 0.523315 0.881744
0.414185 0.473907 0.842743
0.670197 0.459351 0.887909
0.876526 0.447968 0.853394
1.000000 0.462799 0.804779
0.113525 0.737915 0.827789
0.115082 0.739105 0.829346
0.123810 0.745300 0.838074
0.155914 0.766846 0.870178
0.414154 0.751160 0.842712
0.659729 0.732208 0.802582
0.852325 0.709473 0.837402
0.991089 0.705353 0.801880
0.098938 0.956085 0.839539
0.099945 0.957092 0.839844
0.105835 0.962982 0.841492
0.128174 0.985321 0.844238
0.383026 0.954468 0.808411
0.548065 0.976654 0.781097
0.835052 0.941254 0.801178
0.972015 0.926056 0.835419
0.189545 1.000000 0.830566
0.192200 1.000000 0.830261
0.206970 1.000000 0.828308
0.278351 0.992645 0.817932
0.426208 0.997650 0.796051
0.604279 1.000000 0.778442
0.847504 0.972168 0.830475
0.981354 0.990814 0.855652
0.056183 0.015076 1.000000
0.067932 0.015228 1.000000
0.119141 0.016449 1.000000
0.242371 0.022186 1.000000
0.458221 0.039337 1.000000
0.639343 0.059723 1.000000
0.819611 0.083618 1.000000
0.977020 0.105804 1.000000
0.056396 0.032471 1.000000
0.062836 0.025085 1.000000
0.115906 0.026184 1.000000
0.240753 0.030975 1.000000
0.457581 0.047150 1.000000
0.639099 0.066437 1.000000
0.819611 0.089630 1.000000
0.977142 0.111023 1.000000
0.058105 0.104370 1.000000
0.064331 0.099884 1.000000
0.095581 0.071564 1.000000
0.231110 0.074921 1.000000
0.453735 0.086853 1.000000
0.637695 0.101959 1.000000
0.809875 0.128540 0.985687
0.975372 0.140076 0.997223
0.066101 0.264313 1.000000
0.071808 0.262390 1.000000
0.100769 0.250397 1.000000
0.189087 0.195984 1.000000
0.438568 0.202209 1.000000
0.631989 0.211151 1.000000
0.820190 0.223358 1.000000
0.981110 0.231476 1.000000
0.090576 0.524567 1.000000
0.095093 0.523712 1.000000
0.128357 0.517609 0.985504
0.200195 0.502045 1.000000
0.400055 0.450165 0.971497
0.616913 0.452179 1.000000
0.822449 0.459351 1.000000
0.988342 0.455811 1.000000
0.131470 0.727539 0.988617
0.133270 0.727875 0.990417
0.143951 0.730011 1.000000
0.217529 0.724030 1.000000
0.414886 0.704254 0.986328
0.608124 0.692719 1.000000
0.823669 0.701172 0.986908
0.974609 0.698242 0.983978
0.156067 0.929596 1.000000
0.159576 0.929565 1.000000
0.177795 0.929688 1.000000
0.244354 0.931183 1.000000
0.425262 0.934265 0.996704
0.617706 0.939117 1.000000
0.840820 0.929230 0.983704
0.952454 0.952454 0.952454
0.189575 1.000000 1.000000
0.192230 1.000000 1.000000
0.206970 1.000000 1.000000
0.278931 0.993225 0.991852
0.426453 0.997894 0.988251
0.604248 1.000000 0.984711
0.843475 0.986359 0.978577
0.994904 0.994904 0.994904
0.057495 0.017090 1.000000
0.069092 0.017365 1.000000
0.119537 0.018890 1.000000
0.240875 0.025177 1.000000
0.453491 0.043671 1.000000
0.632172 0.064545 1.000000
0.810516 0.089050 1.000000
0.967804 0.112061 1.000000
0.057922 0.034210 1.000000
0.064209 0.026978 1.000000
0.116394 0.028381 1.000000
0.239288 0.034058 1.000000
0.452789 0.051422 1.000000
0.631866 0.071350 1.000000
0.810394 0.094635 1.000000
0.967804 0.117096 1.000000
0.060516 0.105682 1.000000
0.066559 0.101257 1.000000
0.096588 0.072937 1.000000
0.229889 0.077209 1.000000
0.448730 0.090057 1.000000
0.629822 0.106079 1.000000
0.802002 0.131378 0.988525
0.967987 0.144653 1.000000
0.070557 0.264130 1.000000
0.076019 0.262085 1.000000
0.104065 0.249786 1.000000
0.188385 0.194489 1.000000
0.432281 0.201904 1.000000
0.621643 0.211365 1.000000
0.806763 0.223816 1.000000
0.968628 0.236511 1.000000
0.098022 0.521667 1.000000
0.102386 0.520721 1.000000
0.132141 0.514648 0.989288
0.202362 0.495605 1.000000
0.391174 0.438019 0.962616
0.599304 0.439484 1.000000
0.799377 0.446106 1.000000
0.970947 0.452972 1.000000
0.135284 0.724609 0.992432
0.137024 0.724854 0.994171
0.150635 0.724518 1.000000
0.219757 0.714752 1.000000
0.407806 0.683960 0.979248
0.584961 0.666504 1.000000
0.789276 0.680573 0.966309
0.953796 0.690399 0.976135
0.159546 0.926239 1.000000
0.162476 0.925934 1.000000
0.179291 0.925140 1.000000
0.241394 0.921661 1.000000
0.420410 0.906799 0.991852
0.594238 0.905182 1.000000
0.827637 0.905182 0.970520
0.943420 0.943420 0.943420
0.189575 1.000000 1.000000
0.192230 1.000000 1.000000
0.206970 1.000000 1.000000
0.278961 0.993256 0.993256
0.426483 0.997925 0.997925
0.604187 1.000000 1.000000
0.843750 0.986633 0.986633
0.995483 0.995483 0.995483
