img/Test1.CUBE
#Created by: Adobe Photoshop Export Color Lookup Plugin
#Copyright: (C) Copyright 2017 Bird Brain Games
TITLE "^5F924A2FB6929CDCE8129184FB5BD2DC46CA41B1A7F514652F^pimgpsh_fullsize_distr.png"
#LUT size
LUT_3D_SIZE 5
#data domain
#LUT data points
DOMAIN_MIN 0.000000 0.000000 0.000000
DOMAIN_MAX 0.903226 0.903226 0.903226
0.093781 0.057831 0.200684
0.140594 0.052216 0.195068
0.338928 0.053223 0.146515
0.752655 0.038391 0.160095
1.000000 0.098145 0.209473
0.063049 0.121002 0.205902
0.137085 0.099396 0.242249
0.377289 0.091583 0.144714
0.786224 0.071960 0.145844
0.995880 0.138733 0.210907
0.018188 0.446747 0.118073
0.034698 0.463257 0.091309
0.359772 0.416138 0.206299
0.723724 0.393280 0.230011
1.000000 0.404114 0.271973
0.093109 0.807373 0.199799
0.104279 0.818542 0.184875
0.296112 0.839752 0.182251
0.690155 0.793243 0.360474
0.983826 0.787079 0.413330
0.189545 1.000000 0.304138
0.210327 1.000000 0.304504
0.391815 1.000000 0.331421
0.700439 1.000000 0.422058
0.984985 1.000000 0.505890
0.084747 0.060059 0.202911
0.124329 0.062836 0.205688
0.338989 0.053284 0.201111
0.751678 0.037415 0.216156
1.000000 0.097687 0.249939
0.085205 0.117035 0.228058
0.126190 0.109100 0.251953
0.369568 0.083862 0.195862
0.773560 0.059296 0.189728
0.985168 0.128021 0.237762
0.016083 0.444641 0.190155
0.028198 0.456757 0.152313
0.359039 0.424469 0.210938
0.739197 0.384003 0.236237
0.972412 0.408661 0.300598
0.092651 0.806915 0.239899
0.099854 0.814117 0.215790
0.343567 0.799500 0.261993
0.690399 0.797058 0.362549
0.988495 0.785400 0.415344
0.189575 1.000000 0.330536
0.201172 1.000000 0.319031
0.387421 1.000000 0.340485
0.699066 1.000000 0.429871
0.985016 1.000000 0.512329
0.055511 0.009216 0.580627
0.107147 0.007843 0.579254
0.392517 0.005127 0.576538
0.745972 0.031708 0.539520
1.000000 0.095184 0.519012
0.043732 0.075592 0.615143
0.081787 0.048004 0.619415
0.405151 0.033722 0.605133
0.765350 0.051086 0.542908
0.984131 0.126984 0.510986
0.004547 0.433533 0.575958
0.018158 0.439270 0.589569
0.318726 0.404510 0.604431
0.761414 0.332855 0.477142
1.000000 0.341858 0.456696
0.089661 0.803925 0.515472
0.095917 0.810181 0.509338
0.254608 0.826019 0.428162
0.688904 0.814758 0.456879
1.000000 0.767670 0.511963
0.189545 1.000000 0.545258
0.201172 1.000000 0.540527
0.330963 1.000000 0.477753
0.682251 1.000000 0.525299
0.979034 0.991577 0.632141
0.056061 0.014709 0.871826
0.101563 0.015320 0.872437
0.351624 0.024963 0.882080
0.710266 0.046204 0.903320
1.000000 0.091309 0.882660
0.051544 0.075623 0.908661
0.080414 0.050171 0.907288
0.351715 0.053162 0.910278
0.722473 0.065491 0.922607
0.982544 0.125397 0.867584
0.053009 0.397797 0.910126
0.068848 0.393433 0.925964
0.290833 0.322510 0.862244
0.703247 0.322266 0.893677
1.000000 0.328339 0.864105
0.143768 0.776489 0.858032
0.150238 0.781311 0.864502
0.306061 0.793060 0.877472
0.704071 0.780121 0.846924
0.932892 0.790009 0.847473
0.189545 1.000000 0.872559
0.201172 1.000000 0.871216
0.330963 1.000000 0.855072
0.692688 0.978424 0.837738
0.984772 0.997101 0.861450
0.057495 0.017090 1.000000
0.101959 0.018402 1.000000
0.343536 0.033173 1.000000
0.675262 0.070221 1.000000
0.967804 0.112061 1.000000
0.059509 0.081177 1.000000
0.084808 0.056396 1.000000
0.338806 0.067444 1.000000
0.673950 0.097900 1.000000
0.963013 0.137604 0.994751
0.082550 0.390656 1.000000
0.103577 0.384766 1.000000
0.278290 0.306549 0.992584
0.658386 0.317474 1.000000
0.969543 0.333801 1.000000
0.139221 0.774200 0.996368
0.149963 0.774261 1.000000
0.300140 0.755463 1.000000
0.656891 0.726288 0.942627
0.975708 0.732819 1.000000
0.189575 1.000000 1.000000
0.201172 1.000000 1.000000
0.330994 1.000000 1.000000
0.695984 0.981720 0.981720
0.995483 0.995483 0.995483
