img/test2.CUBE
#Created by: Adobe Photoshop Export Color Lookup Plugin
#Copyright: (C) Copyright 2017 Bird Brain Games
TITLE "test2.psd"
#LUT size
LUT_3D_SIZE 5
#data domain
#LUT data points
DOMAIN_MIN 0.000000 0.000000 0.000000
DOMAIN_MAX 0.903226 0.903226 0.903226
0.000000 0.000000 0.000000
0.148468 0.012329 0.012329
0.348785 0.022461 0.022461
0.589294 0.032867 0.032867
0.802063 0.043549 0.043549
0.036407 0.156921 0.023529
0.189056 0.176331 0.040039
0.400726 0.188904 0.053833
0.647675 0.199066 0.069855
0.857635 0.206238 0.089752
0.086365 0.356750 0.036041
0.229462 0.392914 0.060120
0.441803 0.412964 0.075012
0.679810 0.429688 0.089508
0.876495 0.444641 0.105103
0.146088 0.592072 0.047272
0.279633 0.639191 0.078888
0.491577 0.662933 0.096985
0.718048 0.680725 0.112457
0.903473 0.696167 0.127869
0.211151 0.800079 0.058899
0.339294 0.843750 0.096375
0.547119 0.866577 0.118652
0.758301 0.882477 0.136047
0.932312 0.895691 0.152374
0.018707 0.001099 0.113037
0.161652 0.017212 0.132965
0.362244 0.028442 0.146210
0.602325 0.039490 0.158386
0.812378 0.050629 0.169861
0.057343 0.158325 0.140961
0.203705 0.182892 0.166199
0.415741 0.196838 0.183655
0.661316 0.207489 0.202637
0.868011 0.215271 0.224854
0.104919 0.362823 0.151367
0.244781 0.402985 0.183502
0.458069 0.424408 0.201935
0.693481 0.441986 0.218231
0.887085 0.457733 0.234894
0.164307 0.603058 0.152008
0.297699 0.651398 0.190826
0.510651 0.675812 0.212341
0.733154 0.694031 0.229218
0.915253 0.709839 0.244568
0.232727 0.813446 0.138733
0.362091 0.857025 0.182159
0.570038 0.880096 0.206696
0.776672 0.896210 0.224335
0.946533 0.909698 0.238800
0.052979 0.000031 0.215881
0.182434 0.017944 0.293304
0.378967 0.031616 0.313629
0.615997 0.043457 0.330719
0.821899 0.055054 0.346680
0.094849 0.149017 0.295685
0.226807 0.182770 0.337372
0.435547 0.199402 0.363037
0.676270 0.211212 0.388458
0.878571 0.219391 0.417938
0.135529 0.356140 0.316803
0.266663 0.403259 0.362915
0.476288 0.428131 0.389221
0.706146 0.447021 0.411682
0.895630 0.463318 0.434265
0.188324 0.599152 0.332092
0.317169 0.651398 0.383911
0.526581 0.678284 0.413635
0.743469 0.697418 0.436829
0.922028 0.713562 0.458649
0.250885 0.810059 0.341248
0.377838 0.855408 0.398224
0.581451 0.879944 0.432526
0.783600 0.896667 0.457855
0.950562 0.910278 0.480286
0.088287 0.000031 0.329712
0.213165 0.015808 0.480621
0.402832 0.032990 0.511078
0.633881 0.046448 0.533447
0.833893 0.058899 0.552979
0.140350 0.137329 0.478424
0.262390 0.177734 0.536896
0.464539 0.199005 0.570770
0.697052 0.212585 0.600006
0.893433 0.221130 0.631592
0.176788 0.345306 0.505615
0.299896 0.399109 0.564514
0.502960 0.429230 0.597107
0.723755 0.450470 0.622070
0.907379 0.467926 0.645172
0.225098 0.591339 0.529297
0.348785 0.648529 0.589905
0.551208 0.679565 0.623810
0.759308 0.700592 0.648346
0.932434 0.717621 0.669830
0.283386 0.805817 0.547607
0.407440 0.853790 0.610291
0.603516 0.880859 0.646790
0.797760 0.898895 0.672150
0.959808 0.913116 0.693359
0.125488 0.000031 0.459564
0.251801 0.011719 0.670319
0.433960 0.032593 0.702362
0.655914 0.048157 0.724457
0.848358 0.061798 0.742615
0.192535 0.124115 0.668762
0.308868 0.168762 0.724823
0.504883 0.194550 0.759155
0.724701 0.210388 0.786865
0.912598 0.219727 0.815308
0.225067 0.332306 0.690826
0.342865 0.391083 0.745850
0.538177 0.426666 0.778229
0.746155 0.451202 0.801666
0.922089 0.470428 0.822327
0.270294 0.580536 0.713440
0.390137 0.642365 0.768311
0.582947 0.678192 0.800873
0.779449 0.701965 0.823608
0.945435 0.720398 0.842621
0.325317 0.799255 0.732666
0.446930 0.849976 0.787872
0.632050 0.880157 0.821472
0.816132 0.900024 0.844513
0.971497 0.915344 0.863159
