img/test2.CUBE
#Created by: Adobe Photoshop Export Color Lookup Plugin
#Copyright: (C) Copyright 2017 Bird Brain Games
TITLE "test2.psd"
#LUT size
LUT_3D_SIZE 32
#data domain
DOMAIN_MIN 0.0 0.0 0.0
DOMAIN_MAX 1.0 1.0 1.0
#LUT data points
0.000000 0.000000 0.000000
0.015991 0.002808 0.002808
0.034058 0.005066 0.005066
0.054596 0.006714 0.006714
0.076996 0.007965 0.007965
0.099579 0.009491 0.009491
0.123596 0.010864 0.010864
0.148468 0.012329 0.012329
0.174347 0.013702 0.013702
0.201080 0.015137 0.015137
0.228577 0.016663 0.016663
0.257233 0.018097 0.018097
0.286865 0.019531 0.019531
0.317352 0.020966 0.020966
0.348785 0.022461 0.022461
0.381134 0.023956 0.023956
0.414551 0.025421 0.025421
0.448730 0.026917 0.026917
0.484100 0.028381 0.028381
0.519989 0.029877 0.029877
0.555084 0.031372 0.031372
0.589294 0.032867 0.032867
0.622498 0.034363 0.034363
0.654785 0.035889 0.035889
0.686096 0.037415 0.037415
0.716492 0.038940 0.038940
0.746033 0.040497 0.040497
0.774475 0.042023 0.042023
0.802063 0.043549 0.043549
0.828674 0.045074 0.045074
0.854370 0.046661 0.046661
0.879059 0.048218 0.048218
0.006958 0.018066 0.005859
0.022491 0.021332 0.008942
0.041107 0.023499 0.011475
0.063049 0.024658 0.013214
0.085297 0.026093 0.015015
0.109253 0.027222 0.016876
0.133636 0.028564 0.018738
0.159790 0.029572 0.020721
0.186584 0.030701 0.022797
0.214844 0.031647 0.025177
0.244202 0.032593 0.027466
0.275269 0.033173 0.030151
0.306244 0.034241 0.032410
0.339050 0.035004 0.035004
0.371185 0.036530 0.036530
0.404266 0.038025 0.038025
0.438293 0.039581 0.039581
0.473145 0.041107 0.041107
0.509033 0.042664 0.042664
0.544403 0.044220 0.044220
0.578918 0.045715 0.045715
0.612457 0.047302 0.047302
0.645020 0.048828 0.048828
0.676636 0.050385 0.050385
0.707275 0.051971 0.051971
0.737030 0.053528 0.053528
0.765808 0.055115 0.055115
0.793701 0.056702 0.056702
0.820587 0.058258 0.058258
0.846558 0.059875 0.059875
0.871582 0.061493 0.061493
0.895599 0.063080 0.063080
0.012146 0.038025 0.010956
0.028656 0.041077 0.014008
0.047607 0.043304 0.016571
0.069061 0.044952 0.018219
0.092010 0.046265 0.020081
0.115692 0.047668 0.022034
0.140778 0.048920 0.023956
0.166779 0.050110 0.026123
0.194244 0.051147 0.028320
0.222565 0.052216 0.030518
0.252258 0.053131 0.032959
0.282990 0.054016 0.035400
0.314819 0.054871 0.037994
0.348022 0.055603 0.040710
0.382385 0.056305 0.043549
0.418396 0.056732 0.046692
0.455048 0.057312 0.049744
0.493591 0.057587 0.053162
0.532623 0.057770 0.056702
0.568451 0.058929 0.058929
0.602173 0.060547 0.060547
0.635040 0.062134 0.062134
0.667023 0.063721 0.063721
0.698059 0.065338 0.065338
0.728027 0.066956 0.066956
0.757050 0.068604 0.068604
0.785217 0.070221 0.070221
0.812408 0.071869 0.071869
0.838715 0.073486 0.073486
0.863953 0.075104 0.075104
0.888336 0.076752 0.076752
0.911743 0.078400 0.078400
0.016357 0.060089 0.013733
0.032959 0.063293 0.016754
0.051971 0.065735 0.019287
0.072693 0.067841 0.021088
0.096069 0.069061 0.023041
0.119232 0.070892 0.024719
0.144348 0.072266 0.026581
0.170685 0.073486 0.028717
0.198029 0.074707 0.030792
0.225861 0.076111 0.032776
0.255768 0.077057 0.035187
0.286072 0.078247 0.037415
0.318024 0.079132 0.039948
0.351105 0.080017 0.042542
0.385376 0.080811 0.045258
0.420898 0.081482 0.048218
0.457916 0.082031 0.051300
0.496582 0.082306 0.054779
0.535248 0.082642 0.058228
0.573608 0.082642 0.062103
0.610352 0.082825 0.065765
0.646423 0.082794 0.069763
0.681305 0.082794 0.073822
0.715912 0.082275 0.078491
0.748260 0.082367 0.082367
0.776672 0.084076 0.084076
0.804199 0.085754 0.085754
0.830719 0.087433 0.087433
0.856323 0.089142 0.089142
0.881012 0.090790 0.090790
0.904694 0.092499 0.092499
0.927429 0.094208 0.094208
0.020630 0.083160 0.016449
0.037415 0.086517 0.019470
0.056366 0.089142 0.022003
0.077515 0.091187 0.024048
0.099884 0.093140 0.025787
0.123474 0.094879 0.027618
0.148895 0.096222 0.029572
0.174744 0.097809 0.031433
0.201965 0.099243 0.033356
0.230072 0.100677 0.035309
0.259460 0.101990 0.037476
0.289581 0.103394 0.039581
0.321320 0.104584 0.041840
0.353943 0.105743 0.044159
0.387665 0.106842 0.046539
0.422577 0.107910 0.049072
0.458862 0.108826 0.051666
0.496460 0.109589 0.054535
0.534546 0.110260 0.057556
0.571686 0.110840 0.060730
0.607849 0.111359 0.063965
0.643372 0.111664 0.067535
0.678467 0.111572 0.071564
0.712097 0.111664 0.075500
0.745422 0.111267 0.080017
0.778076 0.110565 0.085052
0.809082 0.110138 0.089783
0.839630 0.109222 0.095245
0.868683 0.108398 0.100586
0.896759 0.107422 0.106140
0.920563 0.108673 0.108673
0.942657 0.110413 0.110413
0.025452 0.106934 0.018921
0.042419 0.110443 0.021942
0.060730 0.113678 0.024719
0.082306 0.115692 0.026733
0.104980 0.117615 0.028656
0.128479 0.119568 0.030579
0.153137 0.121490 0.032288
0.179260 0.123077 0.034241
0.206146 0.124786 0.036133
0.234589 0.126221 0.038147
0.263489 0.127869 0.040070
0.293854 0.129333 0.042084
0.325134 0.130768 0.044220
0.357819 0.132019 0.046356
0.391449 0.133362 0.048615
0.426147 0.134644 0.050964
0.462311 0.135712 0.053467
0.498840 0.137054 0.055817
0.536194 0.138031 0.058411
0.572876 0.138855 0.061218
0.608551 0.139618 0.064178
0.643188 0.140381 0.067139
0.676697 0.141235 0.070160
0.709534 0.141815 0.073395
0.741730 0.142151 0.076996
0.772644 0.142609 0.080536
0.802887 0.142731 0.084381
0.832184 0.142731 0.088470
0.860962 0.142334 0.093170
0.889038 0.141541 0.098328
0.915771 0.140839 0.103546
0.942383 0.139221 0.109985
0.030701 0.131561 0.021301
0.047485 0.135376 0.024597
0.066010 0.138702 0.027283
0.086975 0.141266 0.029388
0.109467 0.143433 0.031372
0.132935 0.145599 0.033325
0.158173 0.147339 0.035248
0.184021 0.149292 0.037140
0.210907 0.151123 0.039032
0.239014 0.152893 0.040894
0.268250 0.154510 0.042908
0.298523 0.156158 0.044861
0.330017 0.157654 0.046906
0.362213 0.159271 0.048950
0.395660 0.160767 0.051056
0.430389 0.162140 0.053284
0.466125 0.163544 0.055542
0.503326 0.164673 0.058044
0.539703 0.166138 0.060303
0.575562 0.167328 0.062805
0.610443 0.168549 0.065277
0.644531 0.169647 0.067963
0.677917 0.170502 0.070831
0.710144 0.171448 0.073639
0.741669 0.172211 0.076782
0.772125 0.172943 0.079865
0.801727 0.173584 0.083221
0.830231 0.174194 0.086548
0.857758 0.174713 0.090057
0.884583 0.174927 0.093872
0.910339 0.175140 0.097809
0.935181 0.175110 0.102020
0.036407 0.156921 0.023529
0.053131 0.161102 0.026825
0.072418 0.164215 0.029510
0.092712 0.167267 0.032074
0.114319 0.170135 0.034241
0.138153 0.172302 0.036224
0.162689 0.174500 0.038116
0.189056 0.176331 0.040039
0.215973 0.178345 0.041992
0.244080 0.180237 0.043854
0.273315 0.182007 0.045807
0.303619 0.183838 0.047760
0.334869 0.185577 0.049744
0.367279 0.187256 0.051758
0.400726 0.188904 0.053833
0.435394 0.190430 0.055969
0.470978 0.191956 0.058136
0.507507 0.193512 0.060333
0.543945 0.194916 0.062592
0.579529 0.196350 0.065002
0.614014 0.197723 0.067383
0.647675 0.199066 0.069855
0.680450 0.200287 0.072388
0.712463 0.201385 0.075104
0.743286 0.202545 0.077789
0.773438 0.203461 0.080719
0.802246 0.204620 0.083466
0.830383 0.205475 0.086517
0.857635 0.206238 0.089752
0.883759 0.207062 0.092896
0.909149 0.207642 0.096405
0.933289 0.208252 0.099854
0.041962 0.183411 0.025787
0.059631 0.187317 0.028809
0.077850 0.191254 0.031952
0.097595 0.194885 0.034668
0.119873 0.197571 0.036896
0.143158 0.200134 0.039032
0.168304 0.202240 0.041046
0.193817 0.204681 0.042938
0.221222 0.206573 0.044891
0.249359 0.208588 0.046783
0.278656 0.210541 0.048737
0.308685 0.212555 0.050690
0.340149 0.214355 0.052673
0.372528 0.216156 0.054657
0.405975 0.217957 0.056671
0.440430 0.219727 0.058746
0.476013 0.221436 0.060822
0.512604 0.223053 0.062988
0.548767 0.224609 0.065216
0.583923 0.226166 0.067474
0.618103 0.227722 0.069733
0.651428 0.229187 0.072083
0.684021 0.230530 0.074585
0.715363 0.232025 0.077057
0.745850 0.233429 0.079559
0.775513 0.234680 0.082184
0.804230 0.235870 0.084900
0.832062 0.236938 0.087769
0.858795 0.238098 0.090576
0.884644 0.239136 0.093506
0.909454 0.240082 0.096588
0.933380 0.240967 0.099731
0.048798 0.210144 0.027649
0.065765 0.214722 0.031036
0.084259 0.218781 0.034180
0.103699 0.222748 0.037109
0.125244 0.226013 0.039642
0.148773 0.228668 0.041779
0.173615 0.231140 0.043854
0.199371 0.233643 0.045868
0.226532 0.235840 0.047821
0.254669 0.238007 0.049774
0.283722 0.240204 0.051697
0.314026 0.242249 0.053619
0.345551 0.244202 0.055603
0.377930 0.246155 0.057556
0.411407 0.248016 0.059601
0.446014 0.249847 0.061646
0.481689 0.251740 0.063721
0.518127 0.253448 0.065857
0.553802 0.255219 0.068024
0.588654 0.256958 0.070160
0.622711 0.258575 0.072449
0.655579 0.260284 0.074677
0.687683 0.261871 0.076965
0.718842 0.263428 0.079346
0.749207 0.264893 0.081818
0.778534 0.266327 0.084320
0.806885 0.267792 0.086884
0.834351 0.269165 0.089508
0.860779 0.270538 0.092163
0.886322 0.271759 0.094971
0.911011 0.272858 0.097839
0.934509 0.274078 0.100739
0.055511 0.238007 0.029541
0.072876 0.242615 0.032867
0.090332 0.247559 0.036530
0.109924 0.251648 0.039520
0.131317 0.255219 0.042175
0.154694 0.258179 0.044495
0.179016 0.261047 0.046692
0.205017 0.263519 0.048767
0.231934 0.266083 0.050751
0.260071 0.268372 0.052734
0.289398 0.270630 0.054688
0.319763 0.272827 0.056702
0.351257 0.274902 0.058655
0.383667 0.277008 0.060638
0.417175 0.279053 0.062622
0.451691 0.281067 0.064667
0.487274 0.283020 0.066650
0.523590 0.284912 0.068756
0.559143 0.286774 0.070862
0.593597 0.288727 0.072998
0.627350 0.290466 0.075226
0.660126 0.292236 0.077454
0.691956 0.293976 0.079742
0.722870 0.295654 0.082001
0.752808 0.297363 0.084320
0.781982 0.298889 0.086792
0.810028 0.300507 0.089203
0.837128 0.302094 0.091675
0.863403 0.303528 0.094299
0.888580 0.305054 0.096893
0.912964 0.306366 0.099640
0.936340 0.307770 0.102386
0.063232 0.266174 0.031097
0.080139 0.271362 0.034760
0.096863 0.277008 0.038666
0.116028 0.281616 0.041992
0.137543 0.285339 0.044708
0.160400 0.288757 0.047241
0.184998 0.291687 0.049469
0.210693 0.294586 0.051636
0.238037 0.296997 0.053680
0.265991 0.299652 0.055725
0.295258 0.302032 0.057739
0.325653 0.304352 0.059723
0.356995 0.306671 0.061737
0.389648 0.308838 0.063690
0.423187 0.311005 0.065674
0.457764 0.313202 0.067719
0.493408 0.315216 0.069733
0.529327 0.317322 0.071777
0.564728 0.319244 0.073883
0.599030 0.321259 0.076019
0.632355 0.323212 0.078125
0.664764 0.325165 0.080322
0.696320 0.327026 0.082489
0.727142 0.328796 0.084839
0.756836 0.330658 0.087097
0.785614 0.332397 0.089447
0.813446 0.334167 0.091797
0.840393 0.335815 0.094269
0.866425 0.337433 0.096741
0.891357 0.339081 0.099213
0.915466 0.340637 0.101868
0.938507 0.342194 0.104462
0.070557 0.295654 0.032837
0.086975 0.301392 0.036743
0.103607 0.307312 0.040863
0.122925 0.312103 0.044250
0.143829 0.316437 0.047272
0.166840 0.319946 0.049835
0.190796 0.323486 0.052246
0.216644 0.326477 0.054535
0.243774 0.329193 0.056641
0.271912 0.331909 0.058685
0.301270 0.334473 0.060730
0.331635 0.336975 0.062744
0.363007 0.339386 0.064758
0.395569 0.341736 0.066742
0.429169 0.344055 0.068756
0.463867 0.346252 0.070770
0.499451 0.348572 0.072815
0.535278 0.350708 0.074860
0.570282 0.352844 0.076935
0.604309 0.354919 0.079041
0.637390 0.357025 0.081146
0.669617 0.359039 0.083282
0.700989 0.361023 0.085449
0.731384 0.363007 0.087708
0.760956 0.364868 0.089966
0.789520 0.366760 0.092255
0.817078 0.368683 0.094543
0.843719 0.370575 0.096924
0.869568 0.372253 0.099365
0.894379 0.373993 0.101868
0.918182 0.375732 0.104309
0.940979 0.377472 0.106812
0.078796 0.325531 0.034332
0.094666 0.331909 0.038574
0.110962 0.338348 0.042908
0.129303 0.343964 0.046631
0.150330 0.348419 0.049713
0.173157 0.352295 0.052429
0.197235 0.355957 0.054962
0.222809 0.359283 0.057312
0.249878 0.362244 0.059509
0.277985 0.365112 0.061676
0.307343 0.367828 0.063721
0.337830 0.370514 0.065796
0.369202 0.373108 0.067841
0.401733 0.375610 0.069855
0.435394 0.378082 0.071869
0.470184 0.380402 0.073883
0.505859 0.382690 0.075928
0.541473 0.384949 0.078003
0.576019 0.387268 0.080048
0.609833 0.389526 0.082153
0.642822 0.391663 0.084290
0.674805 0.393799 0.086395
0.705780 0.395996 0.088562
0.735931 0.398071 0.090729
0.765228 0.400116 0.092957
0.793579 0.402100 0.095215
0.820953 0.404083 0.097504
0.847412 0.406097 0.099823
0.872864 0.408020 0.102112
0.897522 0.409821 0.104584
0.921112 0.411682 0.106995
0.943787 0.413544 0.109497
0.086365 0.356750 0.036041
0.101837 0.363678 0.040527
0.117920 0.370544 0.045044
0.136353 0.376404 0.048859
0.157410 0.381165 0.052124
0.179535 0.385712 0.055054
0.203766 0.389465 0.057648
0.229462 0.392914 0.060120
0.256134 0.396240 0.062439
0.284332 0.399292 0.064606
0.313629 0.402191 0.066742
0.344055 0.404999 0.068848
0.375763 0.407654 0.070892
0.408112 0.410370 0.072937
0.441803 0.412964 0.075012
0.476715 0.415466 0.077057
0.512207 0.417999 0.079102
0.547516 0.420410 0.081146
0.581940 0.422760 0.083221
0.615448 0.425079 0.085297
0.648010 0.427399 0.087372
0.679810 0.429688 0.089508
0.710663 0.431915 0.091644
0.740692 0.434082 0.093842
0.769775 0.436218 0.096069
0.797699 0.438477 0.098236
0.824982 0.440521 0.100525
0.851166 0.442657 0.102783
0.876495 0.444641 0.105103
0.900848 0.446625 0.107513
0.924225 0.448639 0.109894
0.946686 0.450623 0.112274
0.095184 0.388214 0.037445
0.109619 0.396149 0.042389
0.125641 0.403351 0.047028
0.143829 0.409668 0.051056
0.164001 0.415131 0.054596
0.186432 0.419678 0.057587
0.210297 0.423920 0.060394
0.236084 0.427521 0.062866
0.262634 0.431213 0.065277
0.290924 0.434357 0.067535
0.320068 0.437561 0.069733
0.350708 0.440430 0.071899
0.382111 0.443359 0.074005
0.414612 0.446198 0.076050
0.448486 0.448822 0.078125
0.483368 0.451447 0.080200
0.519012 0.454071 0.082275
0.553772 0.456757 0.084320
0.587891 0.459259 0.086395
0.621155 0.461670 0.088501
0.653595 0.464081 0.090576
0.685089 0.466431 0.092712
0.715698 0.468811 0.094849
0.745514 0.471100 0.097015
0.774231 0.473389 0.099182
0.802094 0.475647 0.101379
0.829010 0.477936 0.103607
0.855072 0.480133 0.105896
0.880096 0.482361 0.108154
0.904266 0.484436 0.110504
0.927490 0.486542 0.112885
0.949707 0.488647 0.115234
0.103119 0.421204 0.039185
0.117737 0.429352 0.044128
0.133301 0.437225 0.049042
0.151031 0.444031 0.053284
0.171387 0.449677 0.056885
0.193359 0.454834 0.060150
0.217316 0.459259 0.062988
0.242584 0.463348 0.065674
0.269470 0.467041 0.068115
0.297699 0.470398 0.070435
0.326813 0.473755 0.072693
0.357239 0.476959 0.074921
0.388824 0.480011 0.077057
0.421448 0.482941 0.079163
0.455383 0.485748 0.081299
0.490112 0.488556 0.083374
0.525543 0.491302 0.085449
0.560211 0.494049 0.087524
0.594055 0.496643 0.089600
0.627045 0.499237 0.091705
0.659210 0.501709 0.093811
0.690491 0.504242 0.095947
0.720825 0.506683 0.098053
0.750275 0.509094 0.100250
0.778809 0.511505 0.102386
0.806458 0.513855 0.104584
0.833252 0.516174 0.106842
0.858978 0.518402 0.109039
0.883820 0.520660 0.111298
0.907837 0.522827 0.113647
0.930756 0.525024 0.115906
0.952850 0.527100 0.118317
0.111694 0.454773 0.040710
0.125916 0.463501 0.045959
0.141266 0.471832 0.051025
0.158905 0.479034 0.055389
0.178650 0.485321 0.059235
0.200775 0.490631 0.062561
0.224518 0.495361 0.065552
0.249817 0.499664 0.068298
0.276398 0.503693 0.070892
0.304443 0.507446 0.073334
0.333710 0.510864 0.075714
0.364166 0.514130 0.077942
0.395691 0.517303 0.080139
0.428589 0.520264 0.082306
0.462189 0.523254 0.084442
0.497131 0.526031 0.086548
0.532318 0.528809 0.088623
0.566681 0.531586 0.090790
0.600159 0.534241 0.092865
0.633118 0.536682 0.095001
0.664825 0.539307 0.097076
0.695801 0.541779 0.099213
0.725952 0.544189 0.101318
0.755249 0.546539 0.103485
0.783539 0.548889 0.105652
0.810974 0.551239 0.107849
0.837402 0.553528 0.110046
0.863037 0.555756 0.112274
0.887695 0.558075 0.114532
0.911407 0.560211 0.116821
0.934235 0.562347 0.119141
0.956024 0.564484 0.121460
0.120148 0.489319 0.042328
0.134155 0.498596 0.047729
0.149323 0.507355 0.052979
0.166779 0.514832 0.057495
0.186279 0.521423 0.061493
0.208160 0.526917 0.065002
0.231812 0.531769 0.068115
0.256836 0.536224 0.070984
0.283356 0.540314 0.073700
0.311432 0.543945 0.076202
0.340546 0.547516 0.078613
0.371124 0.550720 0.080902
0.402527 0.553955 0.083191
0.435577 0.556854 0.085388
0.469269 0.559845 0.087616
0.504242 0.562592 0.089722
0.539124 0.565308 0.091827
0.573151 0.568054 0.093994
0.606445 0.570618 0.096100
0.638947 0.573181 0.098175
0.670471 0.575653 0.100311
0.701294 0.578186 0.102509
0.731140 0.580566 0.104614
0.760223 0.582886 0.106781
0.788300 0.585236 0.108948
0.815430 0.587585 0.111115
0.841705 0.589813 0.113342
0.867126 0.592010 0.115540
0.891632 0.594177 0.117798
0.915100 0.596375 0.120087
0.937683 0.598480 0.122375
0.959290 0.600586 0.124664
0.128265 0.524719 0.044098
0.142761 0.533569 0.049469
0.157471 0.542480 0.054871
0.174957 0.549896 0.059540
0.194580 0.556305 0.063629
0.215820 0.562225 0.067383
0.239166 0.567230 0.070709
0.264099 0.571686 0.073700
0.290710 0.575714 0.076447
0.318787 0.579346 0.079071
0.347870 0.582947 0.081543
0.378296 0.586243 0.083923
0.409821 0.589386 0.086243
0.442596 0.592407 0.088501
0.476440 0.595276 0.090729
0.511353 0.598053 0.092865
0.545959 0.600769 0.095093
0.579803 0.603394 0.097229
0.612823 0.605927 0.099365
0.644897 0.608521 0.101501
0.676331 0.610992 0.103638
0.706818 0.613403 0.105804
0.736450 0.615753 0.107941
0.765106 0.618164 0.110107
0.793121 0.620392 0.112274
0.820038 0.622711 0.114441
0.846100 0.624939 0.116669
0.871277 0.627167 0.118896
0.895447 0.629364 0.121124
0.918823 0.631439 0.123383
0.941162 0.633606 0.125671
0.962708 0.635590 0.127960
0.137482 0.558685 0.045624
0.151154 0.567902 0.051270
0.166046 0.576538 0.056763
0.183075 0.584137 0.061615
0.202393 0.590668 0.065979
0.223724 0.596405 0.069733
0.246796 0.601471 0.073181
0.271973 0.605835 0.076263
0.298248 0.609985 0.079163
0.326141 0.613800 0.081879
0.355316 0.617310 0.084473
0.385742 0.620636 0.086914
0.417267 0.623779 0.089325
0.449982 0.626740 0.091583
0.483887 0.629639 0.093842
0.518738 0.632355 0.096069
0.552979 0.635040 0.098236
0.586426 0.637756 0.100464
0.619171 0.640289 0.102661
0.651062 0.642761 0.104797
0.682098 0.645203 0.106934
0.712372 0.647644 0.109100
0.741730 0.649963 0.111267
0.770325 0.652222 0.113464
0.797882 0.654572 0.115601
0.824707 0.656738 0.117798
0.850494 0.658966 0.120026
0.875458 0.661133 0.122253
0.899506 0.663239 0.124481
0.922577 0.665405 0.126740
0.944824 0.667450 0.129028
0.966003 0.669525 0.131317
0.146088 0.592072 0.047272
0.160095 0.601013 0.052979
0.174835 0.609619 0.058624
0.191681 0.617188 0.063629
0.210663 0.623871 0.068115
0.231934 0.629547 0.072052
0.254852 0.634705 0.075653
0.279633 0.639191 0.078888
0.306061 0.643250 0.081848
0.333649 0.647125 0.084686
0.362946 0.650574 0.087311
0.393188 0.653961 0.089874
0.424866 0.657013 0.092255
0.457642 0.660065 0.094666
0.491577 0.662933 0.096985
0.526031 0.665680 0.099274
0.559967 0.668335 0.101501
0.593170 0.670929 0.103699
0.625519 0.673462 0.105896
0.657257 0.675903 0.108063
0.688049 0.678284 0.110260
0.718048 0.680725 0.112457
0.747101 0.683075 0.114624
0.775452 0.685303 0.116821
0.802795 0.687531 0.119019
0.829346 0.689758 0.121216
0.854980 0.691864 0.123383
0.879669 0.694031 0.125641
0.903473 0.696167 0.127869
0.926361 0.698212 0.130127
0.948364 0.700226 0.132385
0.969421 0.702240 0.134674
0.154785 0.624603 0.048981
0.168701 0.633423 0.054779
0.183319 0.641968 0.060547
0.200073 0.649475 0.065674
0.219147 0.655975 0.070251
0.240021 0.661835 0.074432
0.263000 0.666901 0.078064
0.287689 0.671448 0.081451
0.313660 0.675720 0.084595
0.341492 0.679413 0.087463
0.370422 0.682983 0.090210
0.400940 0.686218 0.092804
0.432434 0.689392 0.095337
0.465240 0.692352 0.097748
0.499146 0.695190 0.100098
0.533417 0.697876 0.102386
0.566986 0.700592 0.104706
0.599823 0.703156 0.106934
0.632019 0.705627 0.109192
0.663269 0.708069 0.111359
0.693909 0.710449 0.113617
0.723572 0.712708 0.115784
0.752563 0.714966 0.117981
0.780609 0.717224 0.120209
0.807770 0.719452 0.122406
0.834045 0.721619 0.124634
0.859497 0.723724 0.126831
0.883972 0.725830 0.129059
0.907593 0.727905 0.131348
0.930237 0.729950 0.133545
0.952026 0.731934 0.135834
0.972839 0.733887 0.138123
0.164246 0.655945 0.050507
0.178009 0.664703 0.056488
0.192200 0.673248 0.062408
0.209015 0.680634 0.067657
0.227905 0.687134 0.072388
0.248596 0.692963 0.076660
0.271271 0.698120 0.080475
0.295837 0.702667 0.083954
0.321869 0.706848 0.087219
0.349487 0.710693 0.090210
0.378479 0.714203 0.093048
0.408630 0.717560 0.095764
0.440308 0.720581 0.098328
0.473083 0.723541 0.100830
0.506989 0.726379 0.103210
0.540924 0.729065 0.105591
0.574066 0.731720 0.107941
0.606720 0.734253 0.110229
0.638550 0.736664 0.112457
0.669708 0.739044 0.114716
0.699860 0.741425 0.116913
0.729340 0.743713 0.119171
0.757935 0.745941 0.121399
0.785828 0.748108 0.123596
0.812683 0.750275 0.125793
0.838776 0.752380 0.128052
0.863892 0.754486 0.130280
0.888245 0.756561 0.132507
0.911652 0.758514 0.134735
0.934082 0.760590 0.137054
0.955688 0.762543 0.139282
0.976318 0.764496 0.141602
0.173309 0.686615 0.052216
0.187012 0.695190 0.058258
0.201508 0.703491 0.064209
0.217743 0.710999 0.069702
0.236420 0.717468 0.074554
0.257294 0.723175 0.078918
0.279724 0.728363 0.082916
0.303986 0.732971 0.086548
0.330109 0.737091 0.089844
0.357574 0.740906 0.092957
0.386566 0.744385 0.095886
0.416840 0.747650 0.098602
0.448334 0.750763 0.101288
0.481171 0.753723 0.103851
0.514923 0.756531 0.106293
0.548584 0.759125 0.108734
0.581390 0.761749 0.111115
0.613647 0.764221 0.113464
0.645081 0.766632 0.115723
0.675873 0.769012 0.117981
0.705933 0.771271 0.120270
0.735138 0.773560 0.122528
0.763428 0.775787 0.124786
0.790985 0.777954 0.127014
0.817719 0.780029 0.129242
0.843536 0.782104 0.131500
0.868500 0.784149 0.133728
0.892548 0.786163 0.135986
0.915710 0.788177 0.138245
0.938019 0.790070 0.140503
0.959351 0.791992 0.142792
0.979797 0.793915 0.145050
0.182739 0.716278 0.053864
0.196045 0.724854 0.060059
0.210510 0.732971 0.066132
0.226868 0.740295 0.071655
0.245361 0.746735 0.076660
0.265869 0.752472 0.081207
0.288361 0.757568 0.085297
0.312775 0.762085 0.088989
0.338531 0.766296 0.092468
0.365967 0.770081 0.095703
0.394836 0.773560 0.098694
0.425110 0.776794 0.101501
0.456512 0.779907 0.104248
0.489288 0.782837 0.106903
0.522858 0.785553 0.109406
0.556091 0.788177 0.111877
0.588654 0.790741 0.114288
0.620514 0.793243 0.116669
0.651703 0.795593 0.119019
0.682220 0.797913 0.121338
0.711884 0.800171 0.123596
0.740845 0.802399 0.125916
0.768951 0.804535 0.128174
0.796295 0.806610 0.130432
0.822784 0.808655 0.132690
0.848328 0.810730 0.134949
0.873016 0.812775 0.137238
0.896912 0.814728 0.139496
0.919891 0.816650 0.141754
0.941925 0.818542 0.144043
0.963074 0.820435 0.146332
0.983276 0.822296 0.148621
0.191986 0.745178 0.055573
0.205597 0.753448 0.061798
0.219757 0.761475 0.067993
0.235931 0.768707 0.073669
0.254456 0.775024 0.078735
0.274963 0.780670 0.083374
0.297150 0.785797 0.087646
0.321350 0.790314 0.091492
0.347198 0.794403 0.095032
0.374542 0.798187 0.098328
0.403412 0.801697 0.101501
0.433411 0.804993 0.104431
0.464996 0.807983 0.107208
0.497742 0.810852 0.109894
0.530945 0.813599 0.112488
0.563782 0.816193 0.114990
0.595886 0.818726 0.117493
0.627472 0.821106 0.119904
0.658386 0.823517 0.122284
0.688629 0.825745 0.124664
0.718018 0.827972 0.126984
0.746704 0.830139 0.129303
0.774536 0.832245 0.131592
0.801575 0.834290 0.133881
0.827820 0.836304 0.136139
0.853119 0.838287 0.138397
0.877625 0.840271 0.140717
0.901215 0.842194 0.142975
0.923920 0.844086 0.145233
0.945831 0.845947 0.147552
0.966766 0.847778 0.149872
0.986816 0.849579 0.152161
0.201630 0.773010 0.057190
0.215210 0.781097 0.063507
0.229248 0.789032 0.069855
0.245605 0.796021 0.075592
0.263855 0.802368 0.080811
0.283997 0.808044 0.085632
0.306396 0.812927 0.089935
0.330322 0.817505 0.093933
0.355865 0.821625 0.097626
0.383179 0.825378 0.101013
0.411896 0.828827 0.104248
0.442017 0.832001 0.107239
0.473358 0.835052 0.110138
0.506226 0.837830 0.112854
0.539093 0.840576 0.115570
0.571472 0.843170 0.118164
